;Generated by Cura LulzBot Edition GCodeWriter Version: 2.6.63
;FLAVOR:RepRap
;TIME:7618
;Filament used: 5.14099m
;Layer height: 0.38
;Generated with Cura_SteamEngine 2.6.63
;This G-Code has been generated specifically for the LulzBot TAZ 6 with standard extruder
G26 ; clear potential 'probe fail' condition
G21 ; set units to Millimetres
M107 ; disable fans
G90 ; absolute positioning
M82 ; set extruder to absolute mode
G92 E0 ; set extruder position to 0
M140 S60 ; start bed heating up
G28 XY ; home X and Y
G1 X-19 Y258 F1000 ; move to safe homing position
M109 R140 ; soften filament before homing Z
G28 Z ; home Z
G1 E-30 F100 ; retract filament
M109 R140 ; wait for extruder to reach wiping temp
G1 X-15 Y100 F3000 ; move above wiper pad
G1 Z1 ; push nozzle into wiper
G1 X-17 Y95 F1000 ; slow wipe
G1 X-17 Y90 F1000 ; slow wipe
G1 X-17 Y85 F1000 ; slow wipe
G1 X-15 Y90 F1000 ; slow wipe
G1 X-17 Y80 F1000 ; slow wipe
G1 X-15 Y95 F1000 ; slow wipe
G1 X-17 Y75 F2000 ; fast wipe
G1 X-15 Y65 F2000 ; fast wipe
G1 X-17 Y70 F2000 ; fast wipe
G1 X-15 Y60 F2000 ; fast wipe
G1 X-17 Y55 F2000 ; fast wipe
G1 X-15 Y50 F2000 ; fast wipe
G1 X-17 Y40 F2000 ; fast wipe
G1 X-15 Y45 F2000 ; fast wipe
G1 X-17 Y35 F2000 ; fast wipe
G1 X-15 Y40 F2000 ; fast wipe
G1 X-17 Y70 F2000 ; fast wipe
G1 X-15 Y30 Z2 F2000 ; fast wipe
G1 X-17 Y35 F2000 ; fast wipe
G1 X-15 Y25 F2000 ; fast wipe
G1 X-17 Y30 F2000 ; fast wipe
G1 X-15 Y25 Z1.5 F1000 ; slow wipe
G1 X-17 Y23 F1000 ; slow wipe
G1 Z10 ; raise extruder
M109 R140 ; wait for extruder to reach probe temp
G1 X-9 Y-9 ; move above first probe point
M204 S100 ; set probing acceleration
G29 ; start auto-leveling sequence
M204 S500 ; restore standard acceleration
G1 X0 Y0 Z15 F5000 ; move up off last probe point
G4 S1 ; pause
M400 ; wait for moves to finish
M117 Heating... ; progress indicator message on LCD
M109 R205 ; wait for extruder to reach printing temp
M190 S60 ; wait for bed to reach printing temp
G1 Z2 E0 F75 ; prime tiny bit of filment into the nozzle
M117 TAZ 6 Printing... ; progress indicator message on LCD

M221 S100
;LAYER_COUNT:126
;LAYER:0
M107
G0 F2625 X84.596 Y108.387 Z0.425
;TYPE:SKIRT
G1 F900 X85.031 Y108.121 E0.01698
G1 X85.501 Y107.925 E0.03395
G1 X85.996 Y107.806 E0.05091
G1 X86.509 Y107.765 E0.06805
G1 X193.491 Y107.766 E3.63166
G1 X193.999 Y107.806 E3.64863
G1 X194.494 Y107.925 E3.66559
G1 X194.965 Y108.12 E3.68257
G1 X195.4 Y108.386 E3.69955
G1 X195.787 Y108.716 E3.7165
G1 X196.119 Y109.103 E3.73348
G1 X196.385 Y109.538 E3.75047
G1 X196.581 Y110.008 E3.76743
G1 X196.7 Y110.503 E3.78439
G1 X196.741 Y111.016 E3.80153
G1 X196.741 Y168.991 E5.7327
G1 X196.701 Y169.499 E5.74967
G1 X196.582 Y169.994 E5.76663
G1 X196.387 Y170.465 E5.78361
G1 X196.121 Y170.9 E5.80059
G1 X195.791 Y171.287 E5.81754
G1 X195.404 Y171.619 E5.83452
G1 X194.969 Y171.885 E5.85151
G1 X194.499 Y172.081 E5.86847
G1 X194.004 Y172.2 E5.88543
G1 X193.491 Y172.241 E5.90257
G1 X86.509 Y172.241 E9.46618
G1 X86.001 Y172.201 E9.48315
G1 X85.506 Y172.082 E9.50011
G1 X85.035 Y171.887 E9.51709
G1 X84.6 Y171.621 E9.53408
G1 X84.213 Y171.291 E9.55102
G1 X83.881 Y170.904 E9.568
G1 X83.615 Y170.469 E9.58499
G1 X83.419 Y169.999 E9.60195
G1 X83.3 Y169.504 E9.61891
G1 X83.259 Y168.991 E9.63605
G1 X83.259 Y111.015 E11.56725
G1 X83.299 Y110.507 E11.58423
G1 X83.418 Y110.012 E11.60118
G1 X83.613 Y109.541 E11.61816
G1 X83.879 Y109.106 E11.63515
G1 X84.209 Y108.719 E11.65209
G1 X84.596 Y108.387 E11.66908
G1 F600 E10.66908
G0 F2625 X87.264 Y110.341
G0 X87.264 Y111.77
G0 X87.32 Y111.826
G0 X87.25 Y111.756
;TYPE:WALL-INNER
G1 F600 E11.66908
G1 F900 X192.75 Y111.756 E15.18332
G1 X192.75 Y168.25 E17.06515
G1 X87.25 Y168.25 E20.5794
G1 X87.25 Y111.756 E22.46123
G0 F2625 X86.75 Y111.256
;TYPE:WALL-OUTER
G1 F900 X193.25 Y111.256 E26.00879
G1 X193.25 Y168.75 E27.92393
G1 X86.75 Y168.75 E31.47149
G1 X86.75 Y111.256 E33.38663
G0 F2625 X87 Y111.256
G0 X87.32 Y111.826
G0 X87.474 Y112.223
;TYPE:SKIN
G1 F900 X143.275 Y168.024 E36.0153
G1 X143.363 Y168.112
G0 F2625 X142.568 Y168.024
G1 F900 X87.474 Y112.93 E38.61067
G1 X87.386 Y112.842
G0 F2625 X87.474 Y113.637
G1 F900 X141.861 Y168.024 E41.17273
G1 X141.949 Y168.112
G0 F2625 X141.154 Y168.024
G1 F900 X87.474 Y114.344 E43.70148
G1 X87.386 Y114.256
G0 F2625 X87.474 Y115.051
G1 F900 X140.446 Y168.024 E46.19691
G1 X140.534 Y168.112
G0 F2625 X139.739 Y168.024
G1 F900 X87.474 Y115.759 E48.65901
G1 X87.386 Y115.671
G0 F2625 X87.474 Y116.466
G1 F900 X139.032 Y168.024 E51.0878
G1 X139.12 Y168.112
G0 F2625 X138.325 Y168.024
G1 F900 X87.474 Y117.173 E53.48329
G1 X87.386 Y117.085
G0 F2625 X87.474 Y117.88
G1 F900 X137.618 Y168.024 E55.84547
G1 X137.706 Y168.112
G0 F2625 X136.911 Y168.024
G1 F900 X87.474 Y118.587 E58.17435
G1 X87.386 Y118.499
G0 F2625 X87.474 Y119.294
G1 F900 X136.204 Y168.024 E60.46992
G1 X136.292 Y168.112
G0 F2625 X135.497 Y168.024
G1 F900 X87.474 Y120.001 E62.73218
G1 X87.386 Y119.913
G0 F2625 X87.474 Y120.708
G1 F900 X134.79 Y168.024 E64.96114
G1 X134.878 Y168.112
G0 F2625 X134.083 Y168.024
G1 F900 X87.474 Y121.415 E67.1568
G1 X87.386 Y121.327
G0 F2625 X87.474 Y122.122
G1 F900 X133.375 Y168.024 E69.31913
G1 X133.463 Y168.112
G0 F2625 X132.668 Y168.024
G1 F900 X87.474 Y122.83 E71.44812
G1 X87.386 Y122.742
G0 F2625 X87.474 Y123.537
G1 F900 X131.961 Y168.024 E73.54381
G1 X132.049 Y168.112
G0 F2625 X131.254 Y168.024
G1 F900 X87.474 Y124.244 E75.6062
G1 X87.386 Y124.156
G0 F2625 X87.474 Y124.951
G1 F900 X130.547 Y168.024 E77.63528
G1 X130.635 Y168.112
G0 F2625 X129.84 Y168.024
G1 F900 X87.474 Y125.658 E79.63106
G1 X87.386 Y125.57
G0 F2625 X87.474 Y126.365
G1 F900 X129.133 Y168.024 E81.59353
G1 X129.221 Y168.112
G0 F2625 X128.426 Y168.024
G1 F900 X87.474 Y127.072 E83.52269
G1 X87.386 Y126.984
G0 F2625 X87.474 Y127.779
G1 F900 X127.719 Y168.024 E85.41855
G1 X127.807 Y168.112
G0 F2625 X127.011 Y168.024
G1 F900 X87.474 Y128.486 E87.28109
G1 X87.386 Y128.398
G0 F2625 X87.474 Y129.194
G1 F900 X126.304 Y168.024 E89.11029
G1 X126.392 Y168.112
G0 F2625 X125.597 Y168.024
G1 F900 X87.474 Y129.901 E90.90618
G1 X87.386 Y129.813
G0 F2625 X87.474 Y130.608
G1 F900 X124.89 Y168.024 E92.66878
G1 X124.978 Y168.112
G0 F2625 X124.183 Y168.024
G1 F900 X87.474 Y131.315 E94.39806
G1 X87.386 Y131.227
G0 F2625 X87.474 Y132.022
G1 F900 X123.476 Y168.024 E96.09404
G1 X123.564 Y168.112
G0 F2625 X122.769 Y168.024
G1 F900 X87.474 Y132.729 E97.75672
G1 X87.386 Y132.641
G0 F2625 X87.474 Y133.436
G1 F900 X122.062 Y168.024 E99.38609
G1 X122.15 Y168.112
G0 F2625 X121.355 Y168.024
G1 F900 X87.474 Y134.143 E100.98215
G1 X87.386 Y134.055
G0 F2625 X87.474 Y134.85
G1 F900 X120.647 Y168.024 E102.54489
G1 X120.735 Y168.112
G0 F2625 X119.94 Y168.024
G1 F900 X87.474 Y135.558 E104.0743
G1 X87.386 Y135.47
G0 F2625 X87.474 Y136.265
G1 F900 X119.233 Y168.024 E105.5704
G1 X119.321 Y168.112
G0 F2625 X118.526 Y168.024
G1 F900 X87.474 Y136.972 E107.0332
G1 X87.386 Y136.884
G0 F2625 X87.474 Y137.679
G1 F900 X117.819 Y168.024 E108.46269
G1 X117.907 Y168.112
G0 F2625 X117.112 Y168.024
G1 F900 X87.474 Y138.386 E109.85887
G1 X87.386 Y138.298
G0 F2625 X87.474 Y139.093
G1 F900 X116.405 Y168.024 E111.22175
G1 X116.493 Y168.112
G0 F2625 X115.698 Y168.024
G1 F900 X87.474 Y139.8 E112.55133
G1 X87.386 Y139.712
G0 F2625 X87.474 Y140.507
G1 F900 X114.991 Y168.024 E113.8476
G1 X115.079 Y168.112
G0 F2625 X114.284 Y168.024
G1 F900 X87.474 Y141.214 E115.11056
G1 X87.386 Y141.126
G0 F2625 X87.474 Y141.921
G1 F900 X113.576 Y168.024 E116.3402
G1 X113.664 Y168.112
G0 F2625 X112.869 Y168.024
G1 F900 X87.474 Y142.629 E117.5365
G1 X87.386 Y142.541
G0 F2625 X87.474 Y143.336
G1 F900 X112.162 Y168.024 E118.69951
G1 X112.25 Y168.112
G0 F2625 X111.455 Y168.024
G1 F900 X87.474 Y144.043 E119.8292
G1 X87.386 Y143.955
G0 F2625 X87.474 Y144.75
G1 F900 X110.748 Y168.024 E120.92559
G1 X110.836 Y168.112
G0 F2625 X110.041 Y168.024
G1 F900 X87.474 Y145.457 E121.98868
G1 X87.386 Y145.369
G0 F2625 X87.474 Y146.164
G1 F900 X109.334 Y168.024 E123.01846
G1 X109.422 Y168.112
G0 F2625 X108.627 Y168.024
G1 F900 X87.474 Y146.871 E124.01493
G1 X87.386 Y146.783
G0 F2625 X87.474 Y147.578
G1 F900 X107.92 Y168.024 E124.9781
G1 X108.008 Y168.112
G0 F2625 X107.212 Y168.024
G1 F900 X87.474 Y148.285 E125.90794
G1 X87.386 Y148.197
G0 F2625 X87.474 Y148.993
G1 F900 X106.505 Y168.024 E126.80446
G1 X106.593 Y168.112
G0 F2625 X105.798 Y168.024
G1 F900 X87.474 Y149.7 E127.66766
G1 X87.386 Y149.612
G0 F2625 X87.474 Y150.407
G1 F900 X105.091 Y168.024 E128.49756
G1 X105.179 Y168.112
G0 F2625 X104.384 Y168.024
G1 F900 X87.474 Y151.114 E129.29416
G1 X87.386 Y151.026
G0 F2625 X87.474 Y151.821
G1 F900 X103.677 Y168.024 E130.05745
G1 X103.765 Y168.112
G0 F2625 X102.97 Y168.024
G1 F900 X87.474 Y152.528 E130.78743
G1 X87.386 Y152.44
G0 F2625 X87.474 Y153.235
G1 F900 X102.263 Y168.024 E131.48411
G1 X102.351 Y168.112
G0 F2625 X101.556 Y168.024
G1 F900 X87.474 Y153.942 E132.14749
G1 X87.386 Y153.854
G0 F2625 X87.474 Y154.649
G1 F900 X100.848 Y168.024 E132.77753
G1 X100.936 Y168.112
G0 F2625 X100.141 Y168.024
G1 F900 X87.474 Y155.357 E133.37425
G1 X87.386 Y155.269
G0 F2625 X87.474 Y156.064
G1 F900 X99.434 Y168.024 E133.93766
G1 X99.522 Y168.112
G0 F2625 X98.727 Y168.024
G1 F900 X87.474 Y156.771 E134.46777
G1 X87.386 Y156.683
G0 F2625 X87.474 Y157.478
G1 F900 X98.02 Y168.024 E134.96457
G1 X98.108 Y168.112
G0 F2625 X97.313 Y168.024
G1 F900 X87.474 Y158.185 E135.42806
G1 X87.386 Y158.097
G0 F2625 X87.474 Y158.892
G1 F900 X96.606 Y168.024 E135.85825
G1 X96.694 Y168.112
G0 F2625 X95.899 Y168.024
G1 F900 X87.474 Y159.599 E136.25514
G1 X87.386 Y159.511
G0 F2625 X87.474 Y160.306
G1 F900 X95.192 Y168.024 E136.61872
G1 X95.28 Y168.112
G0 F2625 X94.485 Y168.024
G1 F900 X87.474 Y161.013 E136.94899
G1 X87.386 Y160.925
G0 F2625 X87.474 Y161.72
G1 F900 X93.777 Y168.024 E137.24594
G1 X93.865 Y168.112
G0 F2625 X93.07 Y168.024
G1 F900 X87.474 Y162.428 E137.50955
G1 X87.386 Y162.34
G0 F2625 X87.474 Y163.135
G1 F900 X92.363 Y168.024 E137.73986
G1 X92.451 Y168.112
G0 F2625 X91.656 Y168.024
G1 F900 X87.474 Y163.842 E137.93687
G1 X87.386 Y163.754
G0 F2625 X87.474 Y164.549
G1 F900 X90.949 Y168.024 E138.10057
G1 X91.037 Y168.112
G0 F2625 X90.242 Y168.024
G1 F900 X87.474 Y165.256 E138.23096
G1 X87.386 Y165.168
G0 F2625 X87.474 Y165.963
G1 F900 X89.535 Y168.024 E138.32805
G1 X89.623 Y168.112
G0 F2625 X88.828 Y168.024
G1 F900 X87.474 Y166.67 E138.39184
G1 X87.386 Y166.582
G0 F2625 X87.474 Y167.377
G1 F900 X88.121 Y168.024 E138.42232
G0 F2625 X143.982 Y168.024
G1 F900 X87.939 Y111.98 E141.06241
G1 X87.851 Y111.892
G0 F2625 X88.646 Y111.98
G1 F900 X144.689 Y168.024 E143.70251
G1 X144.777 Y168.112
G0 F2625 X145.396 Y168.024
G1 F900 X89.353 Y111.98 E146.3426
G1 X89.265 Y111.892
G0 F2625 X90.06 Y111.98
G1 F900 X146.103 Y168.024 E148.9827
G1 X146.191 Y168.112
G0 F2625 X146.81 Y168.024
G1 F900 X90.767 Y111.98 E151.62279
G1 X90.679 Y111.892
G0 F2625 X91.474 Y111.98
G1 F900 X147.518 Y168.024 E154.26291
G1 X147.606 Y168.112
G0 F2625 X148.225 Y168.024
G1 F900 X92.181 Y111.98 E156.90303
G1 X92.093 Y111.892
G0 F2625 X92.889 Y111.98
G1 F900 X148.932 Y168.024 E159.54312
G1 X149.02 Y168.112
G0 F2625 X149.639 Y168.024
G1 F900 X93.596 Y111.98 E162.18322
G1 X93.508 Y111.892
G0 F2625 X94.303 Y111.98
G1 F900 X150.346 Y168.024 E164.82331
G1 X150.434 Y168.112
G0 F2625 X151.053 Y168.024
G1 F900 X95.01 Y111.98 E167.46341
G1 X94.922 Y111.892
G0 F2625 X95.717 Y111.98
G1 F900 X151.76 Y168.024 E170.1035
G1 X151.848 Y168.112
G0 F2625 X152.467 Y168.024
G1 F900 X96.424 Y111.98 E172.7436
G1 X96.336 Y111.892
G0 F2625 X97.131 Y111.98
G1 F900 X153.174 Y168.024 E175.38369
G1 X153.262 Y168.112
G0 F2625 X153.881 Y168.024
G1 F900 X97.838 Y111.98 E178.02379
G1 X97.75 Y111.892
G0 F2625 X98.545 Y111.98
G1 F900 X154.589 Y168.024 E180.66391
G1 X154.677 Y168.112
G0 F2625 X155.296 Y168.024
G1 F900 X99.253 Y111.98 E183.304
G1 X99.165 Y111.892
G0 F2625 X99.96 Y111.98
G1 F900 X156.003 Y168.024 E185.9441
G1 X156.091 Y168.112
G0 F2625 X156.71 Y168.024
G1 F900 X100.667 Y111.98 E188.58419
G1 X100.579 Y111.892
G0 F2625 X101.374 Y111.98
G1 F900 X157.417 Y168.024 E191.22429
G1 X157.505 Y168.112
G0 F2625 X158.124 Y168.024
G1 F900 X102.081 Y111.98 E193.86438
G1 X101.993 Y111.892
G0 F2625 X102.788 Y111.98
G1 F900 X158.831 Y168.024 E196.50448
G1 X158.919 Y168.112
G0 F2625 X159.538 Y168.024
G1 F900 X103.495 Y111.98 E199.14457
G1 X103.407 Y111.892
G0 F2625 X104.202 Y111.98
G1 F900 X160.245 Y168.024 E201.78467
G1 X160.333 Y168.112
G0 F2625 X160.953 Y168.024
G1 F900 X104.909 Y111.98 E204.42479
G1 X104.821 Y111.892
G0 F2625 X105.617 Y111.98
G1 F900 X161.66 Y168.024 E207.06488
G1 X161.748 Y168.112
G0 F2625 X162.367 Y168.024
G1 F900 X106.324 Y111.98 E209.70498
G1 X106.236 Y111.892
G0 F2625 X107.031 Y111.98
G1 F900 X163.074 Y168.024 E212.34507
G1 X163.162 Y168.112
G0 F2625 X163.781 Y168.024
G1 F900 X107.738 Y111.98 E214.98517
G1 X107.65 Y111.892
G0 F2625 X108.445 Y111.98
G1 F900 X164.488 Y168.024 E217.62526
G1 X164.576 Y168.112
G0 F2625 X165.195 Y168.024
G1 F900 X109.152 Y111.98 E220.26536
G1 X109.064 Y111.892
G0 F2625 X109.859 Y111.98
G1 F900 X165.902 Y168.024 E222.90545
G1 X165.99 Y168.112
G0 F2625 X166.609 Y168.024
G1 F900 X110.566 Y111.98 E225.54555
G1 X110.478 Y111.892
G0 F2625 X111.273 Y111.98
G1 F900 X167.317 Y168.024 E228.18567
G1 X167.405 Y168.112
G0 F2625 X168.024 Y168.024
G1 F900 X111.98 Y111.98 E230.82579
G1 X111.892 Y111.892
G0 F2625 X112.688 Y111.98
G1 F900 X168.731 Y168.024 E233.46588
G1 X168.819 Y168.112
G0 F2625 X169.438 Y168.024
G1 F900 X113.395 Y111.98 E236.10598
G1 X113.307 Y111.892
G0 F2625 X114.102 Y111.98
G1 F900 X170.145 Y168.024 E238.74607
G1 X170.233 Y168.112
G0 F2625 X170.852 Y168.024
G1 F900 X114.809 Y111.98 E241.38617
G1 X114.721 Y111.892
G0 F2625 X115.516 Y111.98
G1 F900 X171.559 Y168.024 E244.02626
G1 X171.647 Y168.112
G0 F2625 X172.266 Y168.024
G1 F900 X116.223 Y111.98 E246.66636
G1 X116.135 Y111.892
G0 F2625 X116.93 Y111.98
G1 F900 X172.973 Y168.024 E249.30645
G1 X173.061 Y168.112
G0 F2625 X173.68 Y168.024
G1 F900 X117.637 Y111.98 E251.94655
G1 X117.549 Y111.892
G0 F2625 X118.344 Y111.98
G1 F900 X174.388 Y168.024 E254.58667
G1 X174.476 Y168.112
G0 F2625 X175.095 Y168.024
G1 F900 X119.052 Y111.98 E257.22676
G1 X118.964 Y111.892
G0 F2625 X119.759 Y111.98
G1 F900 X175.802 Y168.024 E259.86686
G1 X175.89 Y168.112
G0 F2625 X176.509 Y168.024
G1 F900 X120.466 Y111.98 E262.50695
G1 X120.378 Y111.892
G0 F2625 X121.173 Y111.98
G1 F900 X177.216 Y168.024 E265.14705
G1 X177.304 Y168.112
G0 F2625 X177.923 Y168.024
G1 F900 X121.88 Y111.98 E267.78714
G1 X121.792 Y111.892
G0 F2625 X122.587 Y111.98
G1 F900 X178.63 Y168.024 E270.42724
G1 X178.718 Y168.112
G0 F2625 X179.337 Y168.024
G1 F900 X123.294 Y111.98 E273.06733
G1 X123.206 Y111.892
G0 F2625 X124.001 Y111.98
G1 F900 X180.044 Y168.024 E275.70743
G1 X180.132 Y168.112
G0 F2625 X180.752 Y168.024
G1 F900 X124.708 Y111.98 E278.34755
G1 X124.62 Y111.892
G0 F2625 X125.415 Y111.98
G1 F900 X181.459 Y168.024 E280.98767
G1 X181.547 Y168.112
G0 F2625 X182.166 Y168.024
G1 F900 X126.123 Y111.98 E283.62776
G1 X126.035 Y111.892
G0 F2625 X126.83 Y111.98
G1 F900 X182.873 Y168.024 E286.26786
G1 X182.961 Y168.112
G0 F2625 X183.58 Y168.024
G1 F900 X127.537 Y111.98 E288.90795
G1 X127.449 Y111.892
G0 F2625 X128.244 Y111.98
G1 F900 X184.287 Y168.024 E291.54805
G1 X184.375 Y168.112
G0 F2625 X184.994 Y168.024
G1 F900 X128.951 Y111.98 E294.18814
G1 X128.863 Y111.892
G0 F2625 X129.658 Y111.98
G1 F900 X185.701 Y168.024 E296.82824
G1 X185.789 Y168.112
G0 F2625 X186.408 Y168.024
G1 F900 X130.365 Y111.98 E299.46833
G1 X130.277 Y111.892
G0 F2625 X131.072 Y111.98
G1 F900 X187.116 Y168.024 E302.10845
G1 X187.204 Y168.112
G0 F2625 X187.823 Y168.024
G1 F900 X131.779 Y111.98 E304.74857
G1 X131.691 Y111.892
G0 F2625 X132.487 Y111.98
G1 F900 X188.53 Y168.024 E307.38866
G1 X188.618 Y168.112
G0 F2625 X189.237 Y168.024
G1 F900 X133.194 Y111.98 E310.02876
G1 X133.106 Y111.892
G0 F2625 X133.901 Y111.98
G1 F900 X189.944 Y168.024 E312.66885
G1 X190.032 Y168.112
G0 F2625 X190.651 Y168.024
G1 F900 X134.608 Y111.98 E315.30895
G1 X134.52 Y111.892
G0 F2625 X135.315 Y111.98
