;Generated by Cura LulzBot Edition GCodeWriter Version: 2.6.63
;FLAVOR:RepRap
;TIME:955
;Filament used: 0.466167m
;Layer height: 0.38
;Generated with Cura_SteamEngine 2.6.63
;This G-Code has been generated specifically for the LulzBot TAZ 6 with standard extruder
G26 ; clear potential 'probe fail' condition
G21 ; set units to Millimetres
M107 ; disable fans
G90 ; absolute positioning
M82 ; set extruder to absolute mode
G92 E0 ; set extruder position to 0
M140 S60 ; start bed heating up
G28 XY ; home X and Y
G1 X-19 Y258 F1000 ; move to safe homing position
M109 R140 ; soften filament before homing Z
G28 Z ; home Z
G1 E-30 F100 ; retract filament
M109 R140 ; wait for extruder to reach wiping temp
G1 X-15 Y100 F3000 ; move above wiper pad
G1 Z1 ; push nozzle into wiper
G1 X-17 Y95 F1000 ; slow wipe
G1 X-17 Y90 F1000 ; slow wipe
G1 X-17 Y85 F1000 ; slow wipe
G1 X-15 Y90 F1000 ; slow wipe
G1 X-17 Y80 F1000 ; slow wipe
G1 X-15 Y95 F1000 ; slow wipe
G1 X-17 Y75 F2000 ; fast wipe
G1 X-15 Y65 F2000 ; fast wipe
G1 X-17 Y70 F2000 ; fast wipe
G1 X-15 Y60 F2000 ; fast wipe
G1 X-17 Y55 F2000 ; fast wipe
G1 X-15 Y50 F2000 ; fast wipe
G1 X-17 Y40 F2000 ; fast wipe
G1 X-15 Y45 F2000 ; fast wipe
G1 X-17 Y35 F2000 ; fast wipe
G1 X-15 Y40 F2000 ; fast wipe
G1 X-17 Y70 F2000 ; fast wipe
G1 X-15 Y30 Z2 F2000 ; fast wipe
G1 X-17 Y35 F2000 ; fast wipe
G1 X-15 Y25 F2000 ; fast wipe
G1 X-17 Y30 F2000 ; fast wipe
G1 X-15 Y25 Z1.5 F1000 ; slow wipe
G1 X-17 Y23 F1000 ; slow wipe
G1 Z10 ; raise extruder
M109 R140 ; wait for extruder to reach probe temp
G1 X-9 Y-9 ; move above first probe point
M204 S100 ; set probing acceleration
G29 ; start auto-leveling sequence
M204 S500 ; restore standard acceleration
G1 X0 Y0 Z15 F5000 ; move up off last probe point
G4 S1 ; pause
M400 ; wait for moves to finish
M117 Heating... ; progress indicator message on LCD
M109 R205 ; wait for extruder to reach printing temp
M190 S60 ; wait for bed to reach printing temp
G1 Z2 E0 F75 ; prime tiny bit of filment into the nozzle
M117 TAZ 6 Printing... ; progress indicator message on LCD

M221 S100
;LAYER_COUNT:35
;LAYER:0
M107
G0 F2625 X108.378 Y84.601 Z0.425
;TYPE:SKIRT
G1 F900 X108.709 Y84.213 E0.01699
G1 X109.096 Y83.882 E0.03395
G1 X109.53 Y83.615 E0.05092
G1 X110.001 Y83.419 E0.06792
G1 X110.496 Y83.3 E0.08488
G1 X111.009 Y83.259 E0.10202
G1 X122.991 Y83.26 E0.50114
G1 X123.468 Y83.295 E0.51708
G1 X127.671 Y83.919 E0.65861
G1 X133.133 Y84.465 E0.84146
G1 X138.592 Y84.7 E1.02347
G1 X144.074 Y84.626 E1.2061
G1 X149.509 Y84.244 E1.38758
G1 X156.567 Y83.289 E1.62483
G1 X157.003 Y83.26 E1.63939
G1 X168.991 Y83.259 E2.03871
G1 X169.499 Y83.299 E2.05569
G1 X169.994 Y83.418 E2.07264
G1 X170.465 Y83.612 E2.08961
G1 X170.9 Y83.878 E2.1066
G1 X171.287 Y84.209 E2.12356
G1 X171.618 Y84.596 E2.14052
G1 X171.885 Y85.03 E2.1575
G1 X172.081 Y85.501 E2.17449
G1 X172.2 Y85.996 E2.19145
G1 X172.241 Y86.509 E2.20859
G1 X172.24 Y98.498 E2.60795
G1 X172.2 Y99.006 E2.62492
G1 X171.996 Y99.735 E2.65014
G1 X169.192 Y106.55 E2.89561
G1 X168.311 Y109.048 E2.98384
G1 X166.705 Y114.29 E3.16647
G1 X165.396 Y119.624 E3.34942
G1 X164.851 Y122.33 E3.44137
G1 X164.404 Y124.944 E3.5297
G1 X163.702 Y130.418 E3.71354
G1 X163.314 Y135.871 E3.89564
G1 X163.235 Y141.353 E4.07826
G1 X163.465 Y146.814 E4.26033
G1 X164.003 Y152.252 E4.44236
G1 X164.856 Y157.696 E4.62591
G1 X165.374 Y160.294 E4.71416
G1 X166.69 Y165.667 E4.89842
G1 X168.29 Y170.899 E5.08067
G1 X170.171 Y176 E5.26177
G1 X171.974 Y180.213 E5.41442
G1 X172.137 Y180.696 E5.4314
G1 X172.223 Y181.198 E5.44837
G1 X172.236 Y181.491 E5.45814
G1 X172.241 Y193.49 E5.85783
G1 X172.201 Y193.998 E5.8748
G1 X172.083 Y194.493 E5.89175
G1 X171.888 Y194.964 E5.90873
G1 X171.622 Y195.399 E5.92572
G1 X171.292 Y195.786 E5.94266
G1 X170.905 Y196.118 E5.95964
G1 X170.471 Y196.385 E5.97662
G1 X170 Y196.58 E5.9936
G1 X169.505 Y196.7 E6.01056
G1 X168.99 Y196.741 E6.02777
G1 X156.996 Y196.739 E6.4273
G1 X156.562 Y196.71 E6.44179
G1 X149.586 Y195.769 E6.67626
G1 X144.138 Y195.38 E6.8582
G1 X138.659 Y195.298 E7.04073
G1 X133.197 Y195.527 E7.22283
G1 X127.746 Y196.065 E7.40529
G1 X123.47 Y196.705 E7.54931
G1 X122.989 Y196.741 E7.56537
G1 X111.009 Y196.741 E7.96443
G1 X110.501 Y196.701 E7.98141
G1 X110.006 Y196.582 E7.99836
G1 X109.535 Y196.387 E8.01535
G1 X109.1 Y196.121 E8.03233
G1 X108.713 Y195.791 E8.04927
G1 X108.381 Y195.404 E8.06626
G1 X108.115 Y194.969 E8.08324
G1 X107.919 Y194.499 E8.1002
G1 X107.8 Y194.004 E8.11716
G1 X107.759 Y193.49 E8.13434
G1 X107.761 Y181.497 E8.53383
G1 X107.801 Y180.99 E8.55077
G1 X108.006 Y180.261 E8.57599
G1 X110.805 Y173.461 E8.82094
G1 X111.687 Y170.96 E8.90928
G1 X113.295 Y165.71 E9.09218
G1 X114.605 Y160.372 E9.27527
G1 X115.149 Y157.67 E9.36708
G1 X115.596 Y155.056 E9.45541
G1 X116.298 Y149.582 E9.63925
G1 X116.686 Y144.129 E9.82135
G1 X116.765 Y138.647 E10.00398
G1 X116.535 Y133.186 E10.18604
G1 X115.997 Y127.748 E10.36807
G1 X115.144 Y122.304 E10.55162
G1 X114.626 Y119.706 E10.63987
G1 X113.31 Y114.333 E10.82414
G1 X111.709 Y109.098 E11.00649
G1 X109.829 Y104 E11.18748
G1 X108.023 Y99.779 E11.34041
G1 X107.86 Y99.296 E11.3574
G1 X107.774 Y98.794 E11.37436
G1 X107.761 Y98.501 E11.38413
G1 X107.759 Y86.51 E11.78355
G1 X107.799 Y86.002 E11.80053
G1 X107.918 Y85.506 E11.81752
G1 X108.112 Y85.035 E11.83449
G1 X108.378 Y84.601 E11.85144
G1 F600 E10.85144
G0 F2625 X110.335 Y87.264
G0 X111.764 Y87.264
G0 X111.82 Y87.32
G0 X111.75 Y87.25
;TYPE:WALL-INNER
G1 F600 E11.85144
G1 F900 X122.25 Y87.25 E12.2012
G1 X122.25 Y89.25 E12.26782
G1 X125.25 Y89.25 E12.36775
G1 X125.25 Y90.75 E12.41772
G1 X122.25 Y90.75 E12.51765
G1 X122.25 Y97.75 E12.75082
G1 X111.75 Y97.75 E13.10058
G1 X111.75 Y87.25 E13.45034
G0 F2625 X111.25 Y86.75
;TYPE:WALL-OUTER
G1 F900 X122.75 Y86.75 E13.83341
G1 X122.75 Y88.75 E13.90003
G1 X125.75 Y88.75 E13.99996
G1 X125.75 Y91.25 E14.08324
G1 X122.75 Y91.25 E14.18317
G1 X122.75 Y98.25 E14.41634
G1 X111.25 Y98.25 E14.79941
G1 X111.25 Y86.75 E15.18248
G0 F2625 X111.5 Y86.75
G0 X111.82 Y87.32
G0 X112.223 Y87.474
;TYPE:SKIN
G1 F900 X122.024 Y97.275 E15.64418
G1 X122.112 Y97.363
G0 F2625 X121.566 Y97.524
G1 F900 X111.973 Y87.932 E16.09607
G1 X111.885 Y87.844
G0 F2625 X111.973 Y88.639
G1 F900 X120.859 Y97.524 E16.51465
G1 X120.947 Y97.612
G0 F2625 X120.152 Y97.524
G1 F900 X111.973 Y89.346 E16.89992
G1 X111.885 Y89.258
G0 F2625 X111.973 Y90.053
G1 F900 X119.445 Y97.524 E17.25189
G1 X119.533 Y97.612
G0 F2625 X118.738 Y97.524
G1 F900 X111.973 Y90.76 E17.57055
G1 X111.885 Y90.672
G0 F2625 X111.973 Y91.467
G1 F900 X118.03 Y97.524 E17.85588
G1 X118.118 Y97.612
G0 F2625 X117.323 Y97.524
G1 F900 X111.973 Y92.174 E18.10791
G1 X111.885 Y92.086
G0 F2625 X111.973 Y92.882
G1 F900 X116.616 Y97.524 E18.32661
G1 X116.704 Y97.612
G0 F2625 X115.909 Y97.524
G1 F900 X111.973 Y93.589 E18.512
G1 X111.885 Y93.501
G0 F2625 X111.973 Y94.296
G1 F900 X115.202 Y97.524 E18.66409
G1 X115.29 Y97.612
G0 F2625 X114.495 Y97.524
G1 F900 X111.973 Y95.003 E18.78287
G1 X111.885 Y94.915
G0 F2625 X111.973 Y95.71
G1 F900 X113.788 Y97.524 E18.86835
G1 X113.876 Y97.612
G0 F2625 X113.081 Y97.524
G1 F900 X111.973 Y96.417 E18.92052
G1 X111.885 Y96.329
G0 F2625 X111.973 Y97.124
G1 F900 X112.374 Y97.524 E18.93939
G0 F2625 X122.024 Y96.568
G1 F900 X112.93 Y87.474 E19.36779
G1 X112.842 Y87.386
G0 F2625 X113.637 Y87.474
G1 F900 X122.024 Y95.861 E19.76288
G1 X122.112 Y95.949
G0 F2625 X122.024 Y95.154
G1 F900 X114.344 Y87.474 E20.12467
G1 X114.256 Y87.386
G0 F2625 X115.051 Y87.474
G1 F900 X122.024 Y94.447 E20.45315
G1 X122.112 Y94.535
G0 F2625 X122.024 Y93.74
G1 F900 X115.759 Y87.474 E20.74831
G1 X115.671 Y87.386
G0 F2625 X116.466 Y87.474
G1 F900 X122.024 Y93.033 E21.01016
G1 X122.112 Y93.121
G0 F2625 X122.024 Y92.326
G1 F900 X117.173 Y87.474 E21.2387
G1 X117.085 Y87.386
G0 F2625 X117.88 Y87.474
G1 F900 X122.024 Y91.619 E21.43394
G1 X122.112 Y91.707
G0 F2625 X122.024 Y90.912
G1 F900 X118.587 Y87.474 E21.59588
G1 X118.499 Y87.386
G0 F2625 X119.294 Y87.474
G1 F900 X122.344 Y90.524 E21.73955
G1 X122.432 Y90.612
G0 F2625 X123.051 Y90.524
G1 F900 X120.001 Y87.474 E21.88323
G1 X119.913 Y87.386
G0 F2625 X120.708 Y87.474
G1 F900 X122.024 Y88.79 E21.94523
G1 X122.112 Y88.878
G0 F2625 X122.024 Y88.083
G1 F900 X121.415 Y87.474 E21.97392
G0 F2625 X122.222 Y89.278
G0 X122.709 Y89.475
G1 F900 X123.758 Y90.524 E22.02333
G1 X123.846 Y90.612
G0 F2625 X124.465 Y90.524
G1 F900 X123.416 Y89.475 E22.07275
G1 X123.328 Y89.387
G0 F2625 X124.123 Y89.475
G1 F900 X125.024 Y90.376 E22.11519
G1 X125.112 Y90.464
G0 F2625 X125.024 Y89.668
G1 F900 X124.83 Y89.475 E22.12431
G0 F2625 X124.75 Y89.75
G1 F600 E21.12431
G0 F2625 X125.23 Y89.32
G0 X126.665 Y89.32
G0 X153.335 Y89.32
G0 X154.77 Y89.32
G0 X154.82 Y89.32
G0 X154.75 Y89.25
;TYPE:WALL-INNER
G1 F600 E22.12431
G1 F900 X157.75 Y89.25 E22.22424
G1 X157.75 Y87.25 E22.29086
G1 X168.25 Y87.25 E22.64062
G1 X168.25 Y97.75 E22.99038
G1 X157.75 Y97.75 E23.34014
G1 X157.75 Y95.75 E23.40676
G1 X154.75 Y95.75 E23.50669
G1 X154.75 Y94.25 E23.55665
G1 X157.75 Y94.25 E23.65659
G1 X157.75 Y90.75 E23.77317
G1 X154.75 Y90.75 E23.8731
G1 X154.75 Y89.25 E23.92307
G0 F2625 X154.82 Y89.32
G0 X157.778 Y89.278
G0 X157.85 Y88.75
G0 X157.25 Y88.75
;TYPE:WALL-OUTER
G1 F900 X157.25 Y86.75 E23.98969
G1 X168.75 Y86.75 E24.37276
G1 X168.75 Y98.25 E24.75583
G1 X157.25 Y98.25 E25.1389
G1 X157.25 Y96.25 E25.20552
G1 X154.25 Y96.25 E25.30545
G1 X154.25 Y93.75 E25.38872
G1 X157.25 Y93.75 E25.48866
G1 X157.25 Y91.25 E25.57193
G1 X154.25 Y91.25 E25.67186
G1 X154.25 Y88.75 E25.75514
G1 X157.25 Y88.75 E25.85507
G0 F2625 X157.25 Y88.5
G0 X157.974 Y88.677
;TYPE:SKIN
G1 F900 X166.821 Y97.524 E26.27183
G1 X166.909 Y97.612
G0 F2625 X166.114 Y97.524
G1 F900 X157.974 Y89.384 E26.65529
G1 X157.886 Y89.296
G0 F2625 X157.357 Y89.475
G1 F900 X165.407 Y97.524 E27.03449
G1 X165.495 Y97.612
G0 F2625 X164.7 Y97.524
G1 F900 X157.974 Y90.799 E27.35131
G1 X157.886 Y90.711
G0 F2625 X157.699 Y90.524
G1 F900 X156.65 Y89.475 E27.40073
G1 X156.562 Y89.387
G0 F2625 X155.943 Y89.475
G1 F900 X156.992 Y90.524 E27.45015
G1 X157.08 Y90.612
G0 F2625 X156.285 Y90.524
G1 F900 X155.236 Y89.475 E27.49956
G1 X155.148 Y89.387
G0 F2625 X154.974 Y89.92
G1 F900 X155.578 Y90.524 E27.52801
G0 F2625 X157.778 Y90.722
G0 X157.974 Y91.506
G1 F900 X163.992 Y97.524 E27.81151
G1 X164.08 Y97.612
G0 F2625 X163.285 Y97.524
G1 F900 X157.974 Y92.213 E28.0617
G1 X157.886 Y92.125
G0 F2625 X157.974 Y92.92
G1 F900 X162.578 Y97.524 E28.27859
G1 X162.666 Y97.612
G0 F2625 X161.871 Y97.524
G1 F900 X157.974 Y93.628 E28.46214
G1 X157.886 Y93.54
G0 F2625 X157.974 Y94.335
G1 F900 X161.164 Y97.524 E28.61239
G1 X161.252 Y97.612
G0 F2625 X160.457 Y97.524
G1 F900 X157.407 Y94.475 E28.75605
G1 X157.319 Y94.387
G0 F2625 X156.7 Y94.475
G1 F900 X157.75 Y95.525 E28.80551
G1 X157.838 Y95.613
G0 F2625 X157.974 Y95.748
G1 F900 X159.75 Y97.524 E28.88918
G1 X159.838 Y97.612
G0 F2625 X159.043 Y97.524
G1 F900 X157.974 Y96.455 E28.93953
G1 X157.886 Y96.367
G0 F2625 X157.974 Y97.162
G1 F900 X158.336 Y97.524 E28.95659
G0 F2625 X157.778 Y95.722
G0 X157.043 Y95.525
G1 F900 X155.993 Y94.475 E29.00605
G1 X155.905 Y94.387
G0 F2625 X155.286 Y94.475
G1 F900 X156.336 Y95.525 E29.05551
G1 X156.424 Y95.613
G0 F2625 X155.629 Y95.525
G1 F900 X154.973 Y94.869 E29.08642
G0 F2625 X157.778 Y94.278
G0 X157.974 Y87.97
G1 F900 X167.528 Y97.524 E29.53649
G1 X167.616 Y97.612
G0 F2625 X168.024 Y97.314
G1 F900 X158.185 Y87.474 E30.00001
G1 X158.097 Y87.386
G0 F2625 X158.892 Y87.474
G1 F900 X168.024 Y96.607 E30.43022
G1 X168.112 Y96.695
G0 F2625 X168.024 Y95.899
G1 F900 X159.599 Y87.474 E30.8271
G1 X159.511 Y87.386
G0 F2625 X160.306 Y87.474
G1 F900 X168.024 Y95.192 E31.19068
G1 X168.112 Y95.28
G0 F2625 X168.024 Y94.485
G1 F900 X161.013 Y87.474 E31.52096
G1 X160.925 Y87.386
G0 F2625 X161.72 Y87.474
G1 F900 X168.024 Y93.778 E31.81792
G1 X168.112 Y93.866
G0 F2625 X168.024 Y93.071
G1 F900 X162.428 Y87.474 E32.08156
G1 X162.34 Y87.386
G0 F2625 X163.135 Y87.474
G1 F900 X168.024 Y92.364 E32.3119
G1 X168.112 Y92.452
G0 F2625 X168.024 Y91.657
G1 F900 X163.842 Y87.474 E32.50893
G1 X163.754 Y87.386
G0 F2625 X164.549 Y87.474
G1 F900 X168.024 Y90.95 E32.67265
G1 X168.112 Y91.038
G0 F2625 X168.024 Y90.243
G1 F900 X165.256 Y87.474 E32.80307
G1 X165.168 Y87.386
G0 F2625 X165.963 Y87.474
G1 F900 X168.024 Y89.535 E32.90016
G1 X168.112 Y89.623
G0 F2625 X168.024 Y88.828
G1 F900 X166.67 Y87.474 E32.96394
G1 X166.582 Y87.386
G0 F2625 X167.377 Y87.474
G1 F900 X168.024 Y88.121 E32.99442
G0 F2625 X167.75 Y88.121
G1 F600 E31.99442
G0 F2625 X161.18 Y97.73
G0 X161.18 Y99.165
G0 X161.18 Y177.835
G0 X161.18 Y179.27
G0 X161.18 Y179.32
G0 X161.25 Y179.25
;TYPE:WALL-INNER
G1 F600 E32.99442
G1 F900 X161.25 Y182.25 E33.09435
G1 X168.25 Y182.25 E33.32753
G1 X168.25 Y192.75 E33.67729
G1 X157.75 Y192.75 E34.02704
G1 X157.75 Y190.75 E34.09366
G1 X154.75 Y190.75 E34.1936
G1 X154.75 Y189.25 E34.24356
G1 X157.75 Y189.25 E34.34349
G1 X157.75 Y185.75 E34.46008
G1 X154.75 Y185.75 E34.56001
G1 X154.75 Y184.25 E34.60998
G1 X157.75 Y184.25 E34.70991
G1 X157.75 Y182.25 E34.77653
G1 X159.75 Y182.25 E34.84315
G1 X159.75 Y179.25 E34.94308
G1 X161.25 Y179.25 E34.99304
G0 F2625 X161.18 Y179.32
G0 X161.15 Y181.75
G0 X161.75 Y181.75
;TYPE:WALL-OUTER
G1 F900 X168.75 Y181.75 E35.22622
G1 X168.75 Y193.25 E35.60929
G1 X157.25 Y193.25 E35.99236
G1 X157.25 Y191.25 E36.05898
G1 X154.25 Y191.25 E36.15891
G1 X154.25 Y188.75 E36.24218
G1 X157.25 Y188.75 E36.34211
G1 X157.25 Y186.25 E36.42539
G1 X154.25 Y186.25 E36.52532
G1 X154.25 Y183.75 E36.6086
G1 X157.25 Y183.75 E36.70853
G1 X157.25 Y181.75 E36.77515
G1 X159.25 Y181.75 E36.84177
G1 X159.25 Y178.75 E36.9417
G1 X161.75 Y178.75 E37.02498
G1 X161.75 Y181.75 E37.12491
G0 F2625 X162 Y181.75
G0 X161.968 Y182.474
;TYPE:SKIN
G1 F900 X168.024 Y188.53 E37.41019
G1 X168.112 Y188.618
G0 F2625 X168.024 Y187.823
G1 F900 X162.675 Y182.474 E37.66217
G1 X162.587 Y182.386
G0 F2625 X163.382 Y182.474
G1 F900 X168.024 Y187.116 E37.88085
G1 X168.112 Y187.204
G0 F2625 X168.024 Y186.409
G1 F900 X164.089 Y182.474 E38.06622
G1 X164.001 Y182.386
G0 F2625 X164.796 Y182.474
G1 F900 X168.024 Y185.702 E38.21828
G1 X168.112 Y185.79
G0 F2625 X168.024 Y184.995
G1 F900 X165.503 Y182.474 E38.33704
G1 X165.415 Y182.386
G0 F2625 X166.211 Y182.474
G1 F900 X168.024 Y184.288 E38.42247
G1 X168.112 Y184.376
G0 F2625 X168.024 Y183.581
G1 F900 X166.918 Y182.474 E38.4746
G1 X166.83 Y182.386
G0 F2625 X167.625 Y182.474
G1 F900 X168.024 Y182.874 E38.49342
G0 F2625 X168.024 Y189.238
G1 F900 X161.261 Y182.474 E38.81203
G1 X161.173 Y182.386
G0 F2625 X161.025 Y182.238
G1 F900 X159.975 Y181.188 E38.8615
G1 X159.887 Y181.1
G0 F2625 X159.975 Y181.895
G1 F900 X168.024 Y189.945 E39.24069
G1 X168.112 Y190.033
G0 F2625 X168.024 Y190.652
G1 F900 X159.847 Y182.474 E39.62592
G1 X159.759 Y182.386
G0 F2625 X159.14 Y182.474
G1 F900 X168.024 Y191.359 E40.04445
G1 X168.112 Y191.447
G0 F2625 X168.024 Y192.066
G1 F900 X158.432 Y182.474 E40.49631
G1 X158.344 Y182.386
G0 F2625 X157.974 Y182.723
G1 F900 X167.775 Y192.523 E40.95799
G1 X167.863 Y192.611
G0 F2625 X167.068 Y192.523
G1 F900 X157.974 Y183.43 E41.38636
G1 X157.886 Y183.342
G0 F2625 X157.974 Y184.137
G1 F900 X166.361 Y192.523 E41.78144
G1 X166.449 Y192.611
G0 F2625 X165.653 Y192.523
G1 F900 X157.604 Y184.474 E42.16061
G1 X157.516 Y184.386
G0 F2625 X156.897 Y184.474
G1 F900 X157.947 Y185.524 E42.21007
G1 X158.035 Y185.612
G0 F2625 X157.975 Y185.552
G1 F900 X164.946 Y192.523 E42.53846
G1 X165.034 Y192.611
G0 F2625 X164.239 Y192.523
G1 F900 X157.975 Y186.259 E42.83354
G1 X157.887 Y186.171
G0 F2625 X157.975 Y186.966
G1 F900 X163.532 Y192.523 E43.09532
G1 X163.62 Y192.611
G0 F2625 X162.825 Y192.523
G1 F900 X157.975 Y187.673 E43.3238
G1 X157.887 Y187.585
G0 F2625 X157.975 Y188.381
G1 F900 X162.118 Y192.523 E43.51894
G1 X162.206 Y192.611
G0 F2625 X161.411 Y192.523
G1 F900 X157.975 Y189.088 E43.68078
G1 X157.887 Y189
G0 F2625 X157.654 Y189.474
G1 F900 X160.704 Y192.523 E43.82444
G1 X160.792 Y192.611
G0 F2625 X159.997 Y192.523
G1 F900 X156.947 Y189.474 E43.96809
G1 X156.859 Y189.386
G0 F2625 X156.24 Y189.474
