;Generated by Cura LulzBot Edition GCodeWriter Version: 2.6.63
;FLAVOR:RepRap
;TIME:5928
;Filament used: 3.50277m
;Layer height: 0.38
;Generated with Cura_SteamEngine 2.6.63
;This G-Code has been generated specifically for the LulzBot TAZ 6 with standard extruder
G26 ; clear potential 'probe fail' condition
G21 ; set units to Millimetres
M107 ; disable fans
G90 ; absolute positioning
M82 ; set extruder to absolute mode
G92 E0 ; set extruder position to 0
M140 S60 ; start bed heating up
G28 XY ; home X and Y
G1 X-19 Y258 F1000 ; move to safe homing position
M109 R140 ; soften filament before homing Z
G28 Z ; home Z
G1 E-30 F100 ; retract filament
M109 R140 ; wait for extruder to reach wiping temp
G1 X-15 Y100 F3000 ; move above wiper pad
G1 Z1 ; push nozzle into wiper
G1 X-17 Y95 F1000 ; slow wipe
G1 X-17 Y90 F1000 ; slow wipe
G1 X-17 Y85 F1000 ; slow wipe
G1 X-15 Y90 F1000 ; slow wipe
G1 X-17 Y80 F1000 ; slow wipe
G1 X-15 Y95 F1000 ; slow wipe
G1 X-17 Y75 F2000 ; fast wipe
G1 X-15 Y65 F2000 ; fast wipe
G1 X-17 Y70 F2000 ; fast wipe
G1 X-15 Y60 F2000 ; fast wipe
G1 X-17 Y55 F2000 ; fast wipe
G1 X-15 Y50 F2000 ; fast wipe
G1 X-17 Y40 F2000 ; fast wipe
G1 X-15 Y45 F2000 ; fast wipe
G1 X-17 Y35 F2000 ; fast wipe
G1 X-15 Y40 F2000 ; fast wipe
G1 X-17 Y70 F2000 ; fast wipe
G1 X-15 Y30 Z2 F2000 ; fast wipe
G1 X-17 Y35 F2000 ; fast wipe
G1 X-15 Y25 F2000 ; fast wipe
G1 X-17 Y30 F2000 ; fast wipe
G1 X-15 Y25 Z1.5 F1000 ; slow wipe
G1 X-17 Y23 F1000 ; slow wipe
G1 Z10 ; raise extruder
M109 R140 ; wait for extruder to reach probe temp
G1 X-9 Y-9 ; move above first probe point
M204 S100 ; set probing acceleration
G29 ; start auto-leveling sequence
M204 S500 ; restore standard acceleration
G1 X0 Y0 Z15 F5000 ; move up off last probe point
G4 S1 ; pause
M400 ; wait for moves to finish
M117 Heating... ; progress indicator message on LCD
M109 R205 ; wait for extruder to reach printing temp
M190 S60 ; wait for bed to reach printing temp
G1 Z2 E0 F75 ; prime tiny bit of filment into the nozzle
M117 TAZ 6 Printing... ; progress indicator message on LCD

M221 S100
;LAYER_COUNT:68
;LAYER:0
M107
G0 F2625 X93.672 Y92.01 Z0.425
;TYPE:SKIRT
G1 F900 X93.851 Y91.833 E0.00839
G1 X95.139 Y90.651 E0.06662
G1 X95.267 Y90.539 E0.07228
G1 X100.521 Y86.203 E0.2992
G1 X100.839 Y85.972 E0.31229
G1 X107.073 Y81.985 E0.55878
G1 X107.292 Y81.857 E0.56723
G1 X108.808 Y81.047 E0.62449
G1 X108.96 Y80.971 E0.63015
G1 X115.133 Y78.075 E0.85728
G1 X115.499 Y77.929 E0.8704
G1 X122.5 Y75.629 E1.11587
G1 X122.74 Y75.561 E1.12418
G1 X124.461 Y75.139 E1.18321
G1 X124.63 Y75.102 E1.18897
G1 X131.324 Y73.833 E1.41592
G1 X131.724 Y73.782 E1.42935
G1 X139.832 Y73.269 E1.69997
G1 X140.234 Y73.269 E1.71336
G1 X147.474 Y73.709 E1.95498
G1 X147.725 Y73.734 E1.96338
G1 X149.408 Y73.968 E2.01998
G1 X149.573 Y73.995 E2.02555
G1 X156.296 Y75.286 E2.25359
G1 X156.678 Y75.384 E2.26672
G1 X163.705 Y77.643 E2.51259
G1 X163.942 Y77.729 E2.52099
G1 X165.539 Y78.383 E2.57847
G1 X165.694 Y78.452 E2.58413
G1 X171.869 Y81.367 E2.81158
G1 X172.216 Y81.557 E2.82476
G1 X178.471 Y85.503 E3.07111
G1 X178.679 Y85.646 E3.07952
G1 X180.053 Y86.67 E3.1366
G1 X180.185 Y86.774 E3.1422
G1 X185.442 Y91.133 E3.36968
G1 X185.73 Y91.403 E3.38283
G1 X190.797 Y96.765 E3.62857
G1 X190.964 Y96.956 E3.63703
G1 X192.082 Y98.341 E3.69632
G1 X192.184 Y98.474 E3.7019
G1 X196.173 Y103.976 E3.92827
G1 X196.384 Y104.308 E3.94138
G1 X199.951 Y110.742 E4.18643
G1 X200.064 Y110.964 E4.19473
G1 X200.797 Y112.564 E4.25335
G1 X200.865 Y112.726 E4.2592
G1 X203.368 Y119.074 E4.4865
G1 X203.49 Y119.447 E4.49957
G1 X205.354 Y126.609 E4.74609
G1 X205.409 Y126.859 E4.75461
G1 X205.713 Y128.57 E4.8125
G1 X205.738 Y128.736 E4.81809
G1 X206.579 Y135.466 E5.04402
G1 X206.604 Y135.859 E5.05713
G1 X206.627 Y143.302 E5.30506
G1 X206.618 Y143.553 E5.31343
G1 X206.49 Y145.275 E5.37095
G1 X206.473 Y145.445 E5.37664
G1 X205.613 Y152.185 E5.60297
G1 X205.539 Y152.572 E5.6161
G1 X203.726 Y159.729 E5.86203
G1 X203.657 Y159.967 E5.87028
G1 X203.116 Y161.576 E5.92683
G1 X203.057 Y161.736 E5.93251
G1 X200.732 Y167.612 E6.143
G1 X200.631 Y167.841 E6.15134
G1 X199.881 Y169.379 E6.20834
G1 X199.806 Y169.523 E6.21375
G1 X196.517 Y175.487 E6.44062
G1 X196.305 Y175.821 E6.4538
G1 X191.972 Y181.818 E6.70024
G1 X191.815 Y182.019 E6.70874
G1 X190.693 Y183.34 E6.76647
G1 X190.583 Y183.464 E6.772
G1 X185.917 Y188.421 E6.99876
G1 X185.63 Y188.69 E7.01186
G1 X179.95 Y193.421 E7.2581
G1 X179.749 Y193.576 E7.26655
G1 X178.335 Y194.578 E7.32428
G1 X178.195 Y194.672 E7.3299
G1 X172.429 Y198.323 E7.55723
G1 X172.083 Y198.513 E7.57038
G1 X165.38 Y201.694 E7.81753
G1 X165.144 Y201.795 E7.82608
G1 X163.569 Y202.395 E7.88222
G1 X163.413 Y202.45 E7.88773
G1 X156.905 Y204.556 E8.11558
G1 X156.524 Y204.654 E8.12869
G1 X149.244 Y206.068 E8.37572
G1 X148.986 Y206.108 E8.38441
G1 X147.262 Y206.301 E8.4422
G1 X147.099 Y206.315 E8.44765
G1 X140.398 Y206.727 E8.67128
G1 X140.004 Y206.727 E8.68441
G1 X131.961 Y206.244 E8.95281
G1 X131.557 Y206.194 E8.96637
G1 X124.265 Y204.827 E9.2135
G1 X124.013 Y204.77 E9.2221
G1 X122.384 Y204.328 E9.27833
G1 X122.227 Y204.281 E9.28379
G1 X115.732 Y202.162 E9.51136
G1 X115.365 Y202.017 E9.5245
G1 X108.677 Y198.895 E9.77036
G1 X108.452 Y198.779 E9.77879
G1 X106.933 Y197.92 E9.83692
G1 X106.787 Y197.832 E9.8426
G1 X101.036 Y194.169 E10.06973
G1 X100.718 Y193.939 E10.0828
G1 X95.007 Y189.245 E10.32905
G1 X94.817 Y189.076 E10.33752
G1 X93.567 Y187.873 E10.39531
G1 X93.449 Y187.753 E10.40091
G1 X88.783 Y182.771 E10.62828
G1 X88.532 Y182.469 E10.64136
G1 X84.171 Y176.511 E10.88731
G1 X84.03 Y176.3 E10.89576
G1 X83.123 Y174.833 E10.95322
G1 X83.037 Y174.686 E10.95889
G1 X79.757 Y168.703 E11.18617
G1 X79.589 Y168.347 E11.19928
G1 X76.844 Y161.475 E11.44578
G1 X76.759 Y161.235 E11.45426
G1 X76.248 Y159.594 E11.51151
G1 X76.202 Y159.433 E11.51709
G1 X74.513 Y152.828 E11.74418
G1 X74.439 Y152.441 E11.7573
G1 X73.487 Y145.096 E12.00402
G1 X73.464 Y144.845 E12.01241
G1 X73.377 Y143.155 E12.06878
G1 X73.373 Y142.984 E12.07448
G1 X73.381 Y136.124 E12.30299
G1 X73.405 Y135.73 E12.31614
G1 X74.311 Y128.382 E12.56275
G1 X74.352 Y128.131 E12.57123
G1 X74.692 Y126.463 E12.62793
G1 X74.73 Y126.3 E12.63351
G1 X76.439 Y119.678 E12.86131
G1 X76.56 Y119.303 E12.87444
G1 X79.254 Y112.435 E13.12019
G1 X79.356 Y112.204 E13.1286
G1 X80.114 Y110.641 E13.18646
G1 X80.193 Y110.488 E13.1922
G1 X83.437 Y104.612 E13.41578
G1 X83.646 Y104.282 E13.42879
G1 X88.38 Y97.718 E13.69837
G1 X88.64 Y97.401 E13.71203
G1 X93.672 Y92.01 E13.95767
G1 F600 E12.95767
G0 F2625 X105.642 Y85.957
G0 X106.407 Y87.159
G0 X107.213 Y87.514
G0 X107.127 Y87.564
;TYPE:WALL-INNER
G1 F600 E13.95767
G1 F900 X106.759 Y87.362 E13.97166
G1 X106.388 Y87.159 E13.98574
G1 X106.745 Y86.933 E13.99375
G1 X109.775 Y85.007 E14.11334
G1 X116.893 Y81.657 E14.37539
G1 X124.397 Y79.22 E14.63821
G1 X132.136 Y77.742 E14.90065
G1 X139.954 Y77.25 E15.16159
G1 X140.04 Y77.25 E15.16445
G1 X147.869 Y77.742 E15.42576
G1 X155.607 Y79.22 E15.68817
G1 X163.112 Y81.657 E15.95101
G1 X170.23 Y85.007 E16.21306
G1 X173.01 Y86.773 E16.32277
G1 X173.367 Y86.999 E16.33685
G1 X172.997 Y87.202 E16.34485
G1 X172.627 Y87.405 E16.35891
G1 X172.627 Y87.75 E16.3704
G1 X107.127 Y87.75 E18.55223
G1 X107.127 Y87.564 E18.55842
G1 F600 E17.55842
G0 F2625 X107.213 Y87.514
G0 X106.407 Y87.159
G0 X105.642 Y85.957
G0 X102.287 Y88.088
G0 X96.078 Y93.225
G0 X90.562 Y99.1
G0 X85.88 Y105.543
G0 X86.931 Y106.562
G0 X87.239 Y107.335
G0 X87.291 Y107.25
G1 F600 E18.55842
G1 F900 X87.627 Y107.25 E18.56962
G1 X87.627 Y113.25 E18.76948
G1 X95.627 Y113.25 E19.03596
G1 X95.627 Y116.75 E19.15255
G1 X87.627 Y116.75 E19.41903
G1 X87.627 Y172.25 E21.26776
G1 X95.627 Y172.25 E21.53424
G1 X95.627 Y175.75 E21.65083
G1 X89.474 Y175.75 E21.85578
G1 X89.283 Y176.124 E21.86977
G1 X89.099 Y176.486 E21.8833
G1 X88.86 Y176.157 E21.89106
G1 X87.019 Y173.625 E21.99534
G1 X83.222 Y166.719 E22.25786
G1 X80.321 Y159.391 E22.52039
G1 X78.361 Y151.763 E22.78274
G1 X77.373 Y143.941 E23.04536
G1 X77.373 Y136.058 E23.30795
G1 X78.361 Y128.237 E23.57054
G1 X80.32 Y120.609 E23.83288
G1 X83.22 Y113.284 E24.0953
G1 X86.704 Y106.955 E24.33595
G1 X86.931 Y106.543 E24.35162
G1 X87.144 Y106.962 E24.36036
G1 X87.291 Y107.25 E24.37113
G1 F600 E23.37113
G0 F2625 X87.239 Y107.335
G0 X87.599 Y113.278
G0 X95.613 Y116.736
G0 X95.613 Y118.165
G0 X107.141 Y190.835
G0 X107.141 Y192.264
G0 X107.197 Y192.32
G0 X107.127 Y192.25
G1 F600 E24.37113
G1 F900 X172.627 Y192.25 E26.55296
G1 X172.627 Y192.595 E26.56445
G1 X172.995 Y192.797 E26.57843
G1 X173.366 Y193 E26.59252
G1 X173.009 Y193.226 E26.60053
G1 X170.229 Y194.992 E26.71023
G1 X163.113 Y198.341 E26.97221
G1 X155.605 Y200.781 E27.23518
G1 X147.869 Y202.258 E27.49752
G1 X140.035 Y202.75 E27.75899
G1 X132.137 Y202.256 E28.02259
G1 X124.397 Y200.779 E28.28506
G1 X116.894 Y198.342 E28.54784
G1 X109.776 Y194.992 E28.80989
G1 X106.745 Y193.067 E28.9295
G1 X106.388 Y192.841 E28.94357
G1 X106.759 Y192.638 E28.95158
G1 X107.127 Y192.436 E28.96557
G1 X107.127 Y192.25 E28.97176
G1 F600 E27.97176
G0 F2625 X107.197 Y192.32
G0 X172.613 Y192.264
G0 X172.613 Y190.835
G0 X184.141 Y177.165
G0 X184.141 Y175.736
G0 X184.197 Y175.68
G0 X184.127 Y175.75
G1 F600 E28.97176
G1 F900 X184.127 Y172.25 E29.08835
G1 X192.127 Y172.25 E29.35483
G1 X192.127 Y116.75 E31.20356
G1 X184.127 Y116.75 E31.47004
G1 X184.127 Y113.25 E31.58663
G1 X192.127 Y113.25 E31.85311
G1 X192.127 Y107.25 E32.05297
G1 X192.715 Y107.25 E32.07256
G1 X192.861 Y106.964 E32.08325
G1 X193.074 Y106.545 E32.09891
G1 X193.301 Y106.957 E32.10765
G1 X196.785 Y113.284 E32.34825
G1 X199.68 Y120.601 E32.61037
G1 X201.644 Y128.239 E32.87307
G1 X202.627 Y136.026 E33.13451
G1 X202.627 Y143.972 E33.3992
G1 X201.643 Y151.762 E33.66075
G1 X199.684 Y159.39 E33.92308
G1 X196.783 Y166.719 E34.18564
G1 X192.986 Y173.625 E34.44816
G1 X191.145 Y176.157 E34.55244
G1 X190.906 Y176.486 E34.56599
G1 X190.722 Y176.124 E34.57374
G1 X190.531 Y175.75 E34.58773
G1 X184.127 Y175.75 E34.80105
G0 F2625 X183.627 Y176.25
;TYPE:WALL-OUTER
G1 F900 X183.627 Y171.75 E34.95095
G1 X191.627 Y171.75 E35.21743
G1 X191.627 Y117.25 E37.03285
G1 X183.627 Y117.25 E37.29933
G1 X183.627 Y112.75 E37.44922
G1 X191.627 Y112.75 E37.71571
G1 X191.627 Y106.75 E37.91557
G1 X192.218 Y106.75 E37.93526
G1 X192.408 Y106.75 E37.94159
G1 X192.547 Y106.477 E37.95179
G1 X192.436 Y106.324 E37.95809
G1 X188.064 Y100.318 E38.20554
G1 X182.701 Y94.619 E38.46622
G1 X176.666 Y89.636 E38.72691
G1 X173.543 Y87.658 E38.85005
G1 X173.386 Y87.559 E38.85623
G1 X173.127 Y87.701 E38.86607
G1 X173.127 Y87.887 E38.87227
G1 X173.127 Y88.25 E38.88436
G1 X106.627 Y88.25 E41.0995
G1 X106.627 Y88.046 E41.10629
G1 X106.627 Y87.86 E41.11249
G1 X106.368 Y87.718 E41.12233
G1 X106.211 Y87.817 E41.12851
G1 X103.339 Y89.636 E41.24175
G1 X97.304 Y94.619 E41.50245
G1 X91.941 Y100.318 E41.76313
G1 X87.57 Y106.324 E42.01056
G1 X87.459 Y106.477 E42.01686
G1 X87.598 Y106.75 E42.02706
G1 X87.788 Y106.75 E42.03339
G1 X88.127 Y106.75 E42.04468
G1 X88.127 Y112.75 E42.24455
G1 X96.127 Y112.75 E42.51103
G1 X96.127 Y117.25 E42.66092
G1 X88.127 Y117.25 E42.92741
G1 X88.127 Y171.75 E44.74282
G1 X96.127 Y171.75 E45.00931
G1 X96.127 Y176.25 E45.1592
G1 X89.971 Y176.25 E45.36426
G1 X89.781 Y176.25 E45.37059
G1 X89.642 Y176.523 E45.38079
G1 X89.753 Y176.676 E45.38709
G1 X91.941 Y179.682 E45.51094
G1 X97.304 Y185.381 E45.77161
G1 X103.339 Y190.364 E46.03231
G1 X106.211 Y192.183 E46.14555
G1 X106.368 Y192.282 E46.15173
G1 X106.627 Y192.14 E46.16157
G1 X106.627 Y191.954 E46.16777
G1 X106.627 Y191.75 E46.17456
G1 X173.127 Y191.75 E48.3897
G1 X173.127 Y192.113 E48.40179
G1 X173.127 Y192.299 E48.40799
G1 X173.386 Y192.441 E48.41783
G1 X173.543 Y192.342 E48.42401
G1 X176.666 Y190.364 E48.54715
G1 X182.701 Y185.381 E48.80785
G1 X188.064 Y179.682 E49.06852
G1 X190.252 Y176.676 E49.19237
G1 X190.363 Y176.523 E49.19867
G1 X190.224 Y176.25 E49.20887
G1 X190.034 Y176.25 E49.2152
G1 X183.627 Y176.25 E49.42862
G0 F2625 X183.627 Y176
G1 F600 E48.42862
G0 F2625 X184.197 Y175.68
G0 X188.737 Y175.73
G0 X188.737 Y177.165
G0 X188.745 Y177.208
G0 X188.761 Y177.286
G0 X189.457 Y180.761
G0 X189.473 Y180.84
G0 X189.476 Y180.854
G0 X188.737 Y180.317
G1 F600 E49.42862
G1 F900 X183.302 Y186.106 E49.69312
G1 X177.179 Y191.171 E49.95782
G1 X170.472 Y195.43 E50.22247
G1 X163.291 Y198.81 E50.48684
G1 X155.735 Y201.265 E50.75149
G1 X147.931 Y202.755 E51.01614
G1 X140.05 Y203.25 E51.27917
G1 X139.954 Y203.25 E51.28237
G1 X132.075 Y202.753 E51.54535
G1 X124.27 Y201.264 E51.81002
G1 X116.714 Y198.81 E52.07466
G1 X109.533 Y195.43 E52.33903
G1 X102.826 Y191.171 E52.60368
G1 X96.703 Y186.106 E52.86838
G1 X91.268 Y180.317 E53.13288
G1 X86.595 Y173.892 E53.39752
G1 X82.768 Y166.931 E53.66213
G1 X79.846 Y159.549 E53.92659
G1 X77.869 Y151.854 E54.19123
G1 X76.873 Y143.972 E54.45587
G1 X76.873 Y136.027 E54.72052
G1 X77.869 Y128.146 E54.98513
G1 X79.845 Y120.451 E55.24977
G1 X82.766 Y113.072 E55.51413
G1 X86.572 Y106.159 E55.77699
G1 X86.641 Y106.051 E55.78126
G1 X91.268 Y99.683 E56.04346
G1 X96.703 Y93.894 E56.30797
G1 X102.826 Y88.829 E56.57266
G1 X109.532 Y84.569 E56.8373
G1 X116.713 Y81.189 E57.10168
G1 X124.269 Y78.735 E57.36631
G1 X132.074 Y77.245 E57.63099
G1 X139.939 Y76.75 E57.8935
G1 X140.055 Y76.75 E57.89736
G1 X147.931 Y77.245 E58.16023
G1 X155.735 Y78.735 E58.42488
G1 X163.292 Y81.189 E58.68955
G1 X170.473 Y84.569 E58.95392
G1 X177.179 Y88.829 E59.21856
G1 X183.302 Y93.894 E59.48326
G1 X188.737 Y99.683 E59.74776
G1 X193.404 Y106.107 E60.01226
G1 X197.239 Y113.072 E60.27711
G1 X200.156 Y120.445 E60.54123
G1 X202.136 Y128.146 E60.80609
G1 X203.127 Y135.995 E61.06962
G1 X203.127 Y144.004 E61.33641
G1 X202.135 Y151.853 E61.59994
G1 X200.159 Y159.548 E61.86458
G1 X197.237 Y166.931 E62.12907
G1 X193.41 Y173.892 E62.39367
G1 X188.737 Y180.317 E62.65831
G0 F2625 X188.566 Y180.499
G1 F600 E61.65831
G0 F2625 X189.442 Y180.9
G0 X189.439 Y180.887
G0 X189.42 Y180.81
G0 X188.635 Y177.46
G0 X188.617 Y177.383
G0 X188.566 Y177.165
G0 X188.566 Y175.73
G0 X188.253 Y175.525
;TYPE:SKIN
G1 F600 E62.65831
G1 F900 X185.202 Y172.474 E62.80204
G1 X185.114 Y172.386
G0 F2625 X184.495 Y172.474
G1 F900 X187.545 Y175.525 E62.94574
G1 X187.633 Y175.613
G0 F2625 X186.838 Y175.525
G1 F900 X184.351 Y173.037 E63.06292
G1 X184.263 Y172.949
G0 F2625 X184.351 Y173.744
G1 F900 X186.131 Y175.525 E63.1468
G1 X186.219 Y175.613
G0 F2625 X185.424 Y175.525
G1 F900 X184.351 Y174.451 E63.19737
G1 X184.263 Y174.363
G0 F2625 X184.351 Y175.158
G1 F900 X184.717 Y175.525 E63.21464
G0 F2625 X185.909 Y172.474
G1 F900 X188.96 Y175.525 E63.35836
G1 X189.048 Y175.613
G0 F2625 X189.667 Y175.525
G1 F900 X186.616 Y172.474 E63.50209
G1 X186.528 Y172.386
G0 F2625 X187.323 Y172.474
G1 F900 X190.374 Y175.525 E63.64581
G1 X190.462 Y175.613
G0 F2625 X191.223 Y175.667
G1 F900 X188.031 Y172.474 E63.79621
G1 X187.943 Y172.386
G0 F2625 X188.738 Y172.474
G1 F900 X191.521 Y175.257 E63.92731
G1 X191.609 Y175.345
G0 F2625 X191.818 Y174.848
G1 F900 X189.445 Y172.474 E64.03912
G1 X189.357 Y172.386
G0 F2625 X190.152 Y172.474
G1 F900 X192.115 Y174.438 E64.13162
G1 X192.203 Y174.526
G0 F2625 X192.413 Y174.028
G1 F900 X190.859 Y172.474 E64.20482
G1 X190.771 Y172.386
G0 F2625 X191.566 Y172.474
G1 F900 X192.711 Y173.619 E64.25876
G1 X192.799 Y173.707
G0 F2625 X192.975 Y173.176
G1 F900 X192.273 Y172.474 E64.29183
G0 F2625 X192.351 Y171.845
G1 F900 X193.226 Y172.72 E64.33305
G1 X193.314 Y172.808
G0 F2625 X193.477 Y172.263
G1 F900 X192.351 Y171.138 E64.38607
G1 X192.263 Y171.05
G0 F2625 X192.351 Y170.431
G1 F900 X193.728 Y171.807 E64.45091
G1 X193.816 Y171.895
G0 F2625 X193.979 Y171.351
G1 F900 X192.351 Y169.724 E64.52758
G1 X192.263 Y169.636
G0 F2625 X192.351 Y169.016
G1 F900 X194.23 Y170.895 E64.6161
G1 X194.318 Y170.983
G0 F2625 X194.48 Y170.438
G1 F900 X192.351 Y168.309 E64.71639
G1 X192.263 Y168.221
G0 F2625 X192.351 Y167.602
G1 F900 X194.731 Y169.982 E64.82851
G1 X194.819 Y170.07
G0 F2625 X194.982 Y169.526
G1 F900 X192.351 Y166.895 E64.95245
G1 X192.263 Y166.807
G0 F2625 X192.351 Y166.188
