;Generated by Cura LulzBot Edition GCodeWriter Version: 2.6.63
;FLAVOR:RepRap
;TIME:2707
;Filament used: 1.83825m
;Layer height: 0.38
;Generated with Cura_SteamEngine 2.6.63
;This G-Code has been generated specifically for the LulzBot TAZ 6 with standard extruder
G26 ; clear potential 'probe fail' condition
G21 ; set units to Millimetres
M107 ; disable fans
G90 ; absolute positioning
M82 ; set extruder to absolute mode
G92 E0 ; set extruder position to 0
M140 S60 ; start bed heating up
G28 XY ; home X and Y
G1 X-19 Y258 F1000 ; move to safe homing position
M109 R140 ; soften filament before homing Z
G28 Z ; home Z
G1 E-30 F100 ; retract filament
M109 R140 ; wait for extruder to reach wiping temp
G1 X-15 Y100 F3000 ; move above wiper pad
G1 Z1 ; push nozzle into wiper
G1 X-17 Y95 F1000 ; slow wipe
G1 X-17 Y90 F1000 ; slow wipe
G1 X-17 Y85 F1000 ; slow wipe
G1 X-15 Y90 F1000 ; slow wipe
G1 X-17 Y80 F1000 ; slow wipe
G1 X-15 Y95 F1000 ; slow wipe
G1 X-17 Y75 F2000 ; fast wipe
G1 X-15 Y65 F2000 ; fast wipe
G1 X-17 Y70 F2000 ; fast wipe
G1 X-15 Y60 F2000 ; fast wipe
G1 X-17 Y55 F2000 ; fast wipe
G1 X-15 Y50 F2000 ; fast wipe
G1 X-17 Y40 F2000 ; fast wipe
G1 X-15 Y45 F2000 ; fast wipe
G1 X-17 Y35 F2000 ; fast wipe
G1 X-15 Y40 F2000 ; fast wipe
G1 X-17 Y70 F2000 ; fast wipe
G1 X-15 Y30 Z2 F2000 ; fast wipe
G1 X-17 Y35 F2000 ; fast wipe
G1 X-15 Y25 F2000 ; fast wipe
G1 X-17 Y30 F2000 ; fast wipe
G1 X-15 Y25 Z1.5 F1000 ; slow wipe
G1 X-17 Y23 F1000 ; slow wipe
G1 Z10 ; raise extruder
M109 R140 ; wait for extruder to reach probe temp
G1 X-9 Y-9 ; move above first probe point
M204 S100 ; set probing acceleration
G29 ; start auto-leveling sequence
M204 S500 ; restore standard acceleration
G1 X0 Y0 Z15 F5000 ; move up off last probe point
G4 S1 ; pause
M400 ; wait for moves to finish
M117 Heating... ; progress indicator message on LCD
M109 R205 ; wait for extruder to reach printing temp
M190 S60 ; wait for bed to reach printing temp
G1 Z2 E0 F75 ; prime tiny bit of filment into the nozzle
M117 TAZ 6 Printing... ; progress indicator message on LCD

M221 S100
;LAYER_COUNT:22
;LAYER:0
M107
G0 F2625 X103.874 Y83.858 Z0.425
;TYPE:SKIRT
G1 F900 X104.204 Y83.47 E0.01697
G1 X104.59 Y83.137 E0.03395
G1 X105.024 Y82.87 E0.05092
G1 X105.494 Y82.673 E0.0679
G1 X105.989 Y82.552 E0.08487
G1 X106.51 Y82.51 E0.10228
G1 X173.491 Y82.51 E2.33344
G1 X173.999 Y82.55 E2.35042
G1 X174.494 Y82.669 E2.36738
G1 X174.965 Y82.864 E2.38436
G1 X175.4 Y83.13 E2.40134
G1 X175.787 Y83.46 E2.41828
G1 X176.119 Y83.847 E2.43527
G1 X176.385 Y84.282 E2.45225
G1 X176.581 Y84.752 E2.46921
G1 X176.7 Y85.247 E2.48617
G1 X176.741 Y85.758 E2.50325
G1 X176.75 Y101.521 E3.02832
G1 X176.749 Y101.596 E3.03082
G1 X176.683 Y104.536 E3.12878
G1 X176.74 Y132.32 E4.05427
G1 X176.74 Y132.335 E4.05477
G1 X176.693 Y150.858 E4.67178
G1 X176.74 Y172.233 E5.38379
G1 X176.701 Y172.741 E5.40076
G1 X176.583 Y173.237 E5.41775
G1 X176.39 Y173.708 E5.4347
G1 X176.125 Y174.143 E5.45167
G1 X175.795 Y174.531 E5.46864
G1 X175.408 Y174.863 E5.48562
G1 X174.975 Y175.131 E5.50258
G1 X174.505 Y175.328 E5.51956
G1 X174.01 Y175.448 E5.53653
G1 X173.49 Y175.49 E5.5539
G1 X106.509 Y175.49 E7.78506
G1 X106.001 Y175.45 E7.80204
G1 X105.506 Y175.331 E7.819
G1 X105.035 Y175.136 E7.83598
G1 X104.6 Y174.87 E7.85296
G1 X104.213 Y174.54 E7.8699
G1 X103.881 Y174.153 E7.88689
G1 X103.615 Y173.718 E7.90387
G1 X103.419 Y173.248 E7.92084
G1 X103.3 Y172.753 E7.93779
G1 X103.259 Y172.242 E7.95487
G1 X103.25 Y156.46 E8.48057
G1 X103.25 Y110.458 E10.01292
G1 X103.251 Y110.384 E10.01538
G1 X103.318 Y107.457 E10.11291
G1 X103.26 Y85.769 E10.83535
G1 X103.299 Y85.261 E10.85232
G1 X103.416 Y84.765 E10.86929
G1 X103.61 Y84.294 E10.88626
G1 X103.874 Y83.858 E10.90324
G1 F600 E9.90324
G0 F2625 X105.835 Y86.515
G0 X107.264 Y86.515
G0 X107.32 Y86.571
G0 X107.25 Y86.501
;TYPE:WALL-INNER
G1 F600 E10.90324
G1 F900 X172.5 Y86.5 E13.07674
G1 X172.75 Y86.5 E13.08507
G1 X172.75 Y86.75 E13.09046
G1 X172.75 Y101.499 E13.58175
G1 X107.25 Y101.499 E15.76358
G1 X107.25 Y86.501 E16.26317
G0 F2625 X106.75 Y86.001
;TYPE:WALL-OUTER
G1 F900 X173 Y86 E18.46998
G1 X173.25 Y86 E18.47831
G1 X173.25 Y86.25 E18.48369
G1 X173.25 Y101.999 E19.0083
G1 X106.75 Y101.999 E21.22344
G1 X106.75 Y86.001 E21.75634
G0 F2625 X107 Y86.001
G0 X107.32 Y86.571
G0 X107.473 Y86.967
;TYPE:SKIN
G1 F900 X121.78 Y101.273 E22.43029
G1 X121.868 Y101.361
G0 F2625 X122.487 Y101.273
G1 F900 X107.939 Y86.725 E23.11561
G1 X107.851 Y86.637
G0 F2625 X108.646 Y86.725
G1 F900 X123.194 Y101.273 E23.80094
G1 X123.282 Y101.361
G0 F2625 X123.901 Y101.273
G1 F900 X109.353 Y86.725 E24.48627
G1 X109.265 Y86.637
G0 F2625 X110.06 Y86.725
G1 F900 X124.608 Y101.273 E25.17159
G1 X124.696 Y101.361
G0 F2625 X125.315 Y101.273
G1 F900 X110.767 Y86.725 E25.85692
G1 X110.679 Y86.637
G0 F2625 X111.474 Y86.725
G1 F900 X126.022 Y101.273 E26.54225
G1 X126.11 Y101.361
G0 F2625 X126.729 Y101.273
G1 F900 X112.181 Y86.725 E27.22757
G1 X112.093 Y86.637
G0 F2625 X112.888 Y86.725
G1 F900 X127.436 Y101.273 E27.9129
G1 X127.524 Y101.361
G0 F2625 X128.144 Y101.273
G1 F900 X113.595 Y86.725 E28.59825
G1 X113.507 Y86.637
G0 F2625 X114.303 Y86.725
G1 F900 X128.851 Y101.273 E29.28358
G1 X128.939 Y101.361
G0 F2625 X129.558 Y101.273
G1 F900 X115.01 Y86.725 E29.9689
G1 X114.922 Y86.637
G0 F2625 X115.717 Y86.725
G1 F900 X130.265 Y101.273 E30.65423
G1 X130.353 Y101.361
G0 F2625 X130.972 Y101.273
G1 F900 X116.424 Y86.725 E31.33956
G1 X116.336 Y86.637
G0 F2625 X117.131 Y86.725
G1 F900 X131.679 Y101.273 E32.02488
G1 X131.767 Y101.361
G0 F2625 X132.386 Y101.273
G1 F900 X117.838 Y86.725 E32.71021
G1 X117.75 Y86.637
G0 F2625 X118.545 Y86.725
G1 F900 X133.093 Y101.273 E33.39554
G1 X133.181 Y101.361
G0 F2625 X133.8 Y101.273
G1 F900 X119.252 Y86.725 E34.08086
G1 X119.164 Y86.637
G0 F2625 X119.959 Y86.725
G1 F900 X134.507 Y101.273 E34.76619
G1 X134.595 Y101.361
G0 F2625 X135.215 Y101.273
G1 F900 X120.667 Y86.725 E35.45152
G1 X120.579 Y86.637
G0 F2625 X121.374 Y86.725
G1 F900 X135.922 Y101.273 E36.13684
G1 X136.01 Y101.361
G0 F2625 X136.629 Y101.273
G1 F900 X122.081 Y86.725 E36.82217
G1 X121.993 Y86.637
G0 F2625 X122.788 Y86.725
G1 F900 X137.336 Y101.273 E37.5075
G1 X137.424 Y101.361
G0 F2625 X138.043 Y101.273
G1 F900 X123.495 Y86.725 E38.19282
G1 X123.407 Y86.637
G0 F2625 X124.202 Y86.725
G1 F900 X138.75 Y101.273 E38.87815
G1 X138.838 Y101.361
G0 F2625 X139.457 Y101.273
G1 F900 X124.909 Y86.725 E39.56348
G1 X124.821 Y86.637
G0 F2625 X125.616 Y86.725
G1 F900 X140.164 Y101.273 E40.2488
G1 X140.252 Y101.361
G0 F2625 X140.871 Y101.273
G1 F900 X126.323 Y86.725 E40.93413
G1 X126.235 Y86.637
G0 F2625 X127.031 Y86.725
G1 F900 X141.579 Y101.273 E41.61946
G1 X141.667 Y101.361
G0 F2625 X142.286 Y101.273
G1 F900 X127.738 Y86.725 E42.30478
G1 X127.65 Y86.637
G0 F2625 X128.445 Y86.725
G1 F900 X142.993 Y101.273 E42.99011
G1 X143.081 Y101.361
G0 F2625 X143.7 Y101.273
G1 F900 X129.152 Y86.725 E43.67544
G1 X129.064 Y86.637
G0 F2625 X129.859 Y86.725
G1 F900 X144.407 Y101.273 E44.36076
G1 X144.495 Y101.361
G0 F2625 X145.114 Y101.273
G1 F900 X130.566 Y86.725 E45.04609
G1 X130.478 Y86.637
G0 F2625 X131.273 Y86.725
G1 F900 X145.821 Y101.273 E45.73142
G1 X145.909 Y101.361
G0 F2625 X146.528 Y101.273
G1 F900 X131.98 Y86.725 E46.41674
G1 X131.892 Y86.637
G0 F2625 X132.687 Y86.725
G1 F900 X147.235 Y101.273 E47.10207
G1 X147.323 Y101.361
G0 F2625 X147.943 Y101.273
G1 F900 X133.394 Y86.725 E47.78742
G1 X133.306 Y86.637
G0 F2625 X134.102 Y86.725
G1 F900 X148.65 Y101.273 E48.47275
G1 X148.738 Y101.361
G0 F2625 X149.357 Y101.273
G1 F900 X134.809 Y86.725 E49.15807
G1 X134.721 Y86.637
G0 F2625 X135.516 Y86.725
G1 F900 X150.064 Y101.273 E49.8434
G1 X150.152 Y101.361
G0 F2625 X150.771 Y101.273
G1 F900 X136.223 Y86.725 E50.52873
G1 X136.135 Y86.637
G0 F2625 X136.93 Y86.725
G1 F900 X151.478 Y101.273 E51.21405
G1 X151.566 Y101.361
G0 F2625 X152.185 Y101.273
G1 F900 X137.637 Y86.725 E51.89938
G1 X137.549 Y86.637
G0 F2625 X138.344 Y86.725
G1 F900 X152.892 Y101.273 E52.58471
G1 X152.98 Y101.361
G0 F2625 X153.599 Y101.273
G1 F900 X139.051 Y86.725 E53.27003
G1 X138.963 Y86.637
G0 F2625 X139.758 Y86.725
G1 F900 X154.306 Y101.273 E53.95536
G1 X154.394 Y101.361
G0 F2625 X155.014 Y101.273
G1 F900 X140.466 Y86.725 E54.64069
G1 X140.378 Y86.637
G0 F2625 X141.173 Y86.725
G1 F900 X155.721 Y101.273 E55.32601
G1 X155.809 Y101.361
G0 F2625 X156.428 Y101.273
G1 F900 X141.88 Y86.725 E56.01134
G1 X141.792 Y86.637
G0 F2625 X142.587 Y86.725
G1 F900 X157.135 Y101.273 E56.69667
G1 X157.223 Y101.361
G0 F2625 X157.842 Y101.273
G1 F900 X143.294 Y86.725 E57.38199
G1 X143.206 Y86.637
G0 F2625 X144.001 Y86.725
G1 F900 X158.549 Y101.273 E58.06732
G1 X158.637 Y101.361
G0 F2625 X159.256 Y101.273
G1 F900 X144.708 Y86.725 E58.75265
G1 X144.62 Y86.637
G0 F2625 X145.415 Y86.725
G1 F900 X159.963 Y101.273 E59.43797
G1 X160.051 Y101.361
G0 F2625 X160.67 Y101.273
G1 F900 X146.122 Y86.725 E60.1233
G1 X146.034 Y86.637
G0 F2625 X146.83 Y86.725
G1 F900 X161.378 Y101.273 E60.80863
G1 X161.466 Y101.361
G0 F2625 X162.085 Y101.273
G1 F900 X147.537 Y86.725 E61.49395
G1 X147.449 Y86.637
G0 F2625 X148.244 Y86.725
G1 F900 X162.792 Y101.273 E62.17928
G1 X162.88 Y101.361
G0 F2625 X163.499 Y101.273
G1 F900 X148.951 Y86.725 E62.86461
G1 X148.863 Y86.637
G0 F2625 X149.658 Y86.725
G1 F900 X164.206 Y101.273 E63.54993
G1 X164.294 Y101.361
G0 F2625 X164.913 Y101.273
G1 F900 X150.365 Y86.725 E64.23526
G1 X150.277 Y86.637
G0 F2625 X151.072 Y86.725
G1 F900 X165.62 Y101.273 E64.92059
G1 X165.708 Y101.361
G0 F2625 X166.327 Y101.273
G1 F900 X151.779 Y86.725 E65.60591
G1 X151.691 Y86.637
G0 F2625 X152.486 Y86.725
G1 F900 X167.034 Y101.273 E66.29124
G1 X167.122 Y101.361
G0 F2625 X167.741 Y101.273
G1 F900 X153.193 Y86.725 E66.97657
G1 X153.105 Y86.637
G0 F2625 X153.901 Y86.725
G1 F900 X168.449 Y101.273 E67.66189
G1 X168.537 Y101.361
G0 F2625 X169.156 Y101.273
G1 F900 X154.608 Y86.725 E68.34722
G1 X154.52 Y86.637
G0 F2625 X155.315 Y86.725
G1 F900 X169.863 Y101.273 E69.03255
G1 X169.951 Y101.361
G0 F2625 X170.57 Y101.273
G1 F900 X156.022 Y86.725 E69.71787
G1 X155.934 Y86.637
G0 F2625 X156.729 Y86.725
G1 F900 X171.277 Y101.273 E70.4032
G1 X171.365 Y101.361
G0 F2625 X171.984 Y101.273
G1 F900 X157.436 Y86.725 E71.08853
G1 X157.348 Y86.637
G0 F2625 X158.143 Y86.725
G1 F900 X172.524 Y101.107 E71.76601
G1 X172.612 Y101.195
G0 F2625 X172.524 Y100.399
G1 F900 X158.85 Y86.725 E72.41016
G1 X158.762 Y86.637
G0 F2625 X159.557 Y86.725
G1 F900 X172.524 Y99.692 E73.02101
G1 X172.612 Y99.78
G0 F2625 X172.524 Y98.985
G1 F900 X160.265 Y86.725 E73.59853
G1 X160.177 Y86.637
G0 F2625 X160.972 Y86.725
G1 F900 X172.524 Y98.278 E74.14275
G1 X172.612 Y98.366
G0 F2625 X172.524 Y97.571
G1 F900 X161.679 Y86.725 E74.65366
G1 X161.591 Y86.637
G0 F2625 X162.386 Y86.725
G1 F900 X172.524 Y96.864 E75.13126
G1 X172.612 Y96.952
G0 F2625 X172.524 Y96.157
G1 F900 X163.093 Y86.725 E75.57556
G1 X163.005 Y86.637
G0 F2625 X163.8 Y86.725
G1 F900 X172.524 Y95.45 E75.98655
G1 X172.612 Y95.538
G0 F2625 X172.524 Y94.743
G1 F900 X164.507 Y86.725 E76.36424
G1 X164.419 Y86.637
G0 F2625 X165.214 Y86.725
G1 F900 X172.524 Y94.036 E76.70862
G1 X172.612 Y94.124
G0 F2625 X172.524 Y93.328
G1 F900 X165.921 Y86.725 E77.01968
G1 X165.833 Y86.637
G0 F2625 X166.629 Y86.725
G1 F900 X172.524 Y92.621 E77.2974
G1 X172.612 Y92.709
G0 F2625 X172.524 Y91.914
G1 F900 X167.336 Y86.725 E77.54182
G1 X167.248 Y86.637
G0 F2625 X168.043 Y86.725
G1 F900 X172.524 Y91.207 E77.75294
G1 X172.612 Y91.295
G0 F2625 X172.524 Y90.5
G1 F900 X168.75 Y86.725 E77.93075
G1 X168.662 Y86.637
G0 F2625 X169.457 Y86.725
G1 F900 X172.524 Y89.793 E78.07525
G1 X172.612 Y89.881
G0 F2625 X172.524 Y89.086
G1 F900 X170.164 Y86.725 E78.18645
G1 X170.076 Y86.637
G0 F2625 X170.871 Y86.725
G1 F900 X172.524 Y88.379 E78.26434
G1 X172.612 Y88.467
G0 F2625 X172.524 Y87.672
G1 F900 X171.578 Y86.725 E78.30893
G1 X171.49 Y86.637
G0 F2625 X172.285 Y86.725
G1 F900 X172.524 Y86.964 E78.32019
G0 F2625 X121.072 Y101.273
G1 F900 X107.473 Y87.674 E78.96081
G1 X107.385 Y87.586
G0 F2625 X107.473 Y88.381
G1 F900 X120.365 Y101.273 E79.56812
G1 X120.453 Y101.361
G0 F2625 X119.658 Y101.273
G1 F900 X107.473 Y89.089 E80.14211
G1 X107.385 Y89.001
G0 F2625 X107.473 Y89.796
G1 F900 X118.951 Y101.273 E80.68279
G1 X119.039 Y101.361
G0 F2625 X118.244 Y101.273
G1 F900 X107.473 Y90.503 E81.19017
G1 X107.385 Y90.415
G0 F2625 X107.473 Y91.21
G1 F900 X117.537 Y101.273 E81.66424
G1 X117.625 Y101.361
G0 F2625 X116.83 Y101.273
G1 F900 X107.473 Y91.917 E82.10501
G1 X107.385 Y91.829
G0 F2625 X107.473 Y92.624
G1 F900 X116.123 Y101.273 E82.51247
G1 X116.211 Y101.361
G0 F2625 X115.416 Y101.273
G1 F900 X107.473 Y93.331 E82.88662
G1 X107.385 Y93.243
G0 F2625 X107.473 Y94.038
G1 F900 X114.708 Y101.273 E83.22745
G1 X114.796 Y101.361
G0 F2625 X114.001 Y101.273
G1 F900 X107.473 Y94.745 E83.53497
G1 X107.385 Y94.657
G0 F2625 X107.473 Y95.453
G1 F900 X113.294 Y101.273 E83.80916
G1 X113.382 Y101.361
G0 F2625 X112.587 Y101.273
G1 F900 X107.473 Y96.16 E84.05005
G1 X107.385 Y96.072
G0 F2625 X107.473 Y96.867
G1 F900 X111.88 Y101.273 E84.25763
G1 X111.968 Y101.361
G0 F2625 X111.173 Y101.273
G1 F900 X107.473 Y97.574 E84.4319
G1 X107.385 Y97.486
G0 F2625 X107.473 Y98.281
G1 F900 X110.466 Y101.273 E84.57288
G1 X110.554 Y101.361
G0 F2625 X109.759 Y101.273
G1 F900 X107.473 Y98.988 E84.68054
G1 X107.385 Y98.9
G0 F2625 X107.473 Y99.695
G1 F900 X109.052 Y101.273 E84.7549
G1 X109.14 Y101.361
G0 F2625 X108.345 Y101.273
G1 F900 X107.473 Y100.402 E84.79595
G1 X107.385 Y100.314
G0 F2625 X107.473 Y101.109
G1 F900 X107.637 Y101.273 E84.80368
G0 F2625 X107.75 Y100.999
G1 F600 E83.80368
G0 F2625 X107.32 Y101.479
G0 X107.32 Y102.914
G0 X107.319 Y109.086
G0 X107.32 Y110.501
G0 X107.32 Y110.571
G0 X107.25 Y110.501
;TYPE:WALL-INNER
G1 F600 E84.80368
G1 F900 X172.5 Y110.5 E86.97718
G1 X172.75 Y110.5 E86.98551
G1 X172.75 Y110.75 E86.9909
G1 X172.75 Y125.499 E87.48219
G1 X107.25 Y125.499 E89.66402
G1 X107.25 Y110.501 E90.16361
G0 F2625 X106.75 Y110.001
;TYPE:WALL-OUTER
G1 F900 X173 Y110 E92.37042
G1 X173.25 Y110 E92.37875
G1 X173.25 Y110.25 E92.38414
G1 X173.25 Y125.999 E92.90874
G1 X106.75 Y125.999 E95.12388
G1 X106.75 Y110.001 E95.65678
G0 F2625 X107 Y110.001
G0 X107.32 Y110.571
G0 X107.475 Y111.01
;TYPE:SKIN
G1 F900 X121.737 Y125.273 E96.32866
G1 X121.825 Y125.361
G0 F2625 X121.03 Y125.273
G1 F900 X107.475 Y111.717 E96.96723
G1 X107.387 Y111.629
G0 F2625 X107.475 Y112.425
G1 F900 X120.323 Y125.273 E97.57247
G1 X120.411 Y125.361
G0 F2625 X119.616 Y125.273
G1 F900 X107.475 Y113.132 E98.14441
G1 X107.387 Y113.044
G0 F2625 X107.475 Y113.839
G1 F900 X118.909 Y125.273 E98.68304
G1 X118.997 Y125.361
G0 F2625 X118.202 Y125.273
G1 F900 X107.475 Y114.546 E99.18837
G1 X107.387 Y114.458
G0 F2625 X107.475 Y115.253
G1 F900 X117.494 Y125.273 E99.66037
G1 X117.582 Y125.361
G0 F2625 X116.787 Y125.273
G1 F900 X107.475 Y115.96 E100.09906
G1 X107.387 Y115.872
G0 F2625 X107.475 Y116.667
G1 F900 X116.08 Y125.273 E100.50445
G1 X116.168 Y125.361
G0 F2625 X115.373 Y125.273
G1 F900 X107.475 Y117.374 E100.87653
G1 X107.387 Y117.286
G0 F2625 X107.475 Y118.081
G1 F900 X114.666 Y125.273 E101.21531
G1 X114.754 Y125.361
G0 F2625 X113.959 Y125.273
G1 F900 X107.475 Y118.788 E101.52078
G1 X107.387 Y118.7
G0 F2625 X107.475 Y119.496
G1 F900 X113.252 Y125.273 E101.79292
G1 X113.34 Y125.361
G0 F2625 X112.545 Y125.273
G1 F900 X107.475 Y120.203 E102.03176
G1 X107.387 Y120.115
G0 F2625 X107.475 Y120.91
G1 F900 X111.838 Y125.273 E102.23729
G1 X111.926 Y125.361
G0 F2625 X111.131 Y125.273
G1 F900 X107.475 Y121.617 E102.40952
G1 X107.387 Y121.529
G0 F2625 X107.475 Y122.324
G1 F900 X110.423 Y125.273 E102.54841
G1 X110.511 Y125.361
G0 F2625 X109.716 Y125.273
G1 F900 X107.475 Y123.031 E102.65401
G1 X107.387 Y122.943
G0 F2625 X107.475 Y123.738
G1 F900 X109.009 Y125.273 E102.72629
G1 X109.097 Y125.361
G0 F2625 X108.302 Y125.273
G1 F900 X107.475 Y124.445 E102.76528
G1 X107.387 Y124.357
G0 F2625 X107.475 Y125.152
G1 F900 X107.595 Y125.273 E102.77095
G0 F2625 X107.896 Y110.725
G1 F900 X122.444 Y125.273 E103.45628
G1 X122.532 Y125.361
